(G-CODE GENERATED BY FLATCAM v8.994 - www.flatcam.org - Version Date: 2020/11/7)

(Name: Drill_PTH_Through.DRL_cnc)
(Type: G-code from Geometry)
(Units: MM)

(Created on Thursday, 23 March 2023 at 21:08)


G01 F300.00

M5
G00 Z15.0000
T1
G00 X0.0000 Y0.0000                
M6
(MSG, Change to Tool Dia = 0.9000 ||| Total drills for tool T1 = 24)
M0
G00 Z15.0000

G01 F300.00
M03
G00 X26.0350 Y-30.3530
G01 Z-1.7000
G01 Z0
G00 Z2.0000
G00 X26.1620 Y-33.6550
G01 Z-1.7000
G01 Z0
G00 Z2.0000
G00 X36.1950 Y-37.0840
G01 Z-1.7000
G01 Z0
G00 Z2.0000
G00 X36.3220 Y-33.6550
G01 Z-1.7000
G01 Z0
G00 Z2.0000
G00 X36.1950 Y-30.3530
G01 Z-1.7000
G01 Z0
G00 Z2.0000
G00 X48.5140 Y-30.2260
G01 Z-1.7000
G01 Z0
G00 Z2.0000
G00 X48.5140 Y-32.7660
G01 Z-1.7000
G01 Z0
G00 Z2.0000
G00 X53.3400 Y-32.7660
G01 Z-1.7000
G01 Z0
G00 Z2.0000
G00 X53.3400 Y-39.2430
G01 Z-1.7000
G01 Z0
G00 Z2.0000
G00 X48.3870 Y-39.8780
G01 Z-1.7000
G01 Z0
G00 Z2.0000
G00 X48.3870 Y-37.3380
G01 Z-1.7000
G01 Z0
G00 Z2.0000
G00 X36.1950 Y-40.3860
G01 Z-1.7000
G01 Z0
G00 Z2.0000
G00 X26.0350 Y-37.0840
G01 Z-1.7000
G01 Z0
G00 Z2.0000
G00 X26.0350 Y-40.3860
G01 Z-1.7000
G01 Z0
G00 Z2.0000
G00 X17.6530 Y-41.5100
G01 Z-1.7000
G01 Z0
G00 Z2.0000
G00 X17.6530 Y-37.9920
G01 Z-1.7000
G01 Z0
G00 Z2.0000
G00 X7.8740 Y-35.9410
G01 Z-1.7000
G01 Z0
G00 Z2.0000
G00 X5.3340 Y-41.0210
G01 Z-1.7000
G01 Z0
G00 Z2.0000
G00 X2.7940 Y-35.9410
G01 Z-1.7000
G01 Z0
G00 Z2.0000
G00 X2.7940 Y-31.2420
G01 Z-1.7000
G01 Z0
G00 Z2.0000
G00 X5.3340 Y-26.1620
G01 Z-1.7000
G01 Z0
G00 Z2.0000
G00 X7.8740 Y-31.2420
G01 Z-1.7000
G01 Z0
G00 Z2.0000
G00 X17.9070 Y-31.3500
G01 Z-1.7000
G01 Z0
G00 Z2.0000
G00 X17.9070 Y-27.8320
G01 Z-1.7000
G01 Z0
G00 Z2.0000
M05
G00 Z0.50


