(G-CODE GENERATED BY FLATCAM v8.994 - www.flatcam.org - Version Date: 2020/11/7)

(Name: Gerber_TopLayer.GTL_1_iso_combined_1_cnc)
(Type: G-code from Geometry)
(Units: MM)

(Created on Thursday, 23 March 2023 at 21:17)


F300
/Tool switching while working is not supported! = Смена инструмента в процессе работы не поддерживается!
M3 S15000.0
F300
G0 X6.1648 Y-26.3891
F1000
G1 Z0.0000 F1000
F300
G1 X10.5679 Y-26.3891
G1 X10.5679 Y-37.9920
G1 X10.5688 Y-38.0119
G1 X10.5696 Y-38.0192
G1 X10.5723 Y-38.0363
G1 X10.5764 Y-38.0532
G1 X10.5785 Y-38.0603
G1 X10.5852 Y-38.0789
G1 X10.5936 Y-38.0969
G1 X10.5972 Y-38.1033
G1 X10.6062 Y-38.1182
G1 X10.6165 Y-38.1322
G1 X10.6211 Y-38.1380
G1 X10.6344 Y-38.1526
G1 X10.6491 Y-38.1660
G1 X10.6548 Y-38.1706
G1 X10.6689 Y-38.1808
G1 X10.6880 Y-38.1923
G1 X10.7059 Y-38.2009
G1 X10.7127 Y-38.2036
G1 X10.7291 Y-38.2093
G1 X10.7459 Y-38.2137
G1 X10.7531 Y-38.2152
G1 X10.7727 Y-38.2180
G1 X10.7950 Y-38.2191
G1 X16.8222 Y-38.2191
G1 X16.8289 Y-38.2446
G1 X16.8548 Y-38.3173
G1 X16.8576 Y-38.3242
G1 X16.8928 Y-38.3984
G1 X16.9363 Y-38.4709
G1 X16.9867 Y-38.5389
G1 X17.0401 Y-38.5980
G1 X17.0470 Y-38.6050
G1 X17.1024 Y-38.6552
G1 X17.1100 Y-38.6614
G1 X17.1741 Y-38.7088
G1 X17.2467 Y-38.7523
G1 X17.3231 Y-38.7884
G1 X17.3981 Y-38.8154
G1 X17.4075 Y-38.8182
G1 X17.4848 Y-38.8375
G1 X17.5636 Y-38.8493
G1 X17.5734 Y-38.8503
G1 X17.6481 Y-38.8539
G1 X17.6579 Y-38.8539
G1 X17.7375 Y-38.8499
G1 X17.8163 Y-38.8383
G1 X17.8260 Y-38.8364
G1 X17.8985 Y-38.8182
G1 X17.9079 Y-38.8154
G1 X17.9829 Y-38.7884
G1 X18.0593 Y-38.7523
G1 X18.1278 Y-38.7114
G1 X18.1359 Y-38.7059
G1 X18.1998 Y-38.6584
G1 X18.2590 Y-38.6050
G1 X18.2659 Y-38.5980
G1 X18.3193 Y-38.5389
G1 X18.3669 Y-38.4750
G1 X18.3711 Y-38.4689
G1 X18.4132 Y-38.3984
G1 X18.4474 Y-38.3264
G1 X18.4512 Y-38.3173
G1 X18.4779 Y-38.2423
G1 X18.4974 Y-38.1650
G1 X18.4993 Y-38.1554
G1 X18.5108 Y-38.0765
G1 X18.5150 Y-37.9945
G1 X18.5112 Y-37.9124
G1 X18.5102 Y-37.9027
G1 X18.4984 Y-37.8239
G1 X18.4786 Y-37.7442
G1 X18.4763 Y-37.7372
G1 X18.4484 Y-37.6599
G1 X18.4143 Y-37.5879
G1 X18.4010 Y-37.5651
G1 X18.6551 Y-37.3111
G1 X25.0211 Y-37.3111
G1 X25.0400 Y-37.3858
G1 X25.0744 Y-37.4819
G1 X25.1180 Y-37.5742
G1 X25.1678 Y-37.6575
G1 X25.1733 Y-37.6657
G1 X25.2282 Y-37.7398
G1 X25.2344 Y-37.7474
G1 X25.2998 Y-37.8192
G1 X25.3754 Y-37.8878
G1 X25.4573 Y-37.9486
G1 X25.5406 Y-37.9986
G1 X25.5492 Y-38.0032
G1 X25.6326 Y-38.0427
G1 X25.6417 Y-38.0464
G1 X25.7332 Y-38.0790
G1 X25.8321 Y-38.1038
G1 X25.9331 Y-38.1188
G1 X26.0325 Y-38.1238
G1 X26.0399 Y-38.1237
G1 X26.1320 Y-38.1192
G1 X26.1418 Y-38.1182
G1 X26.2379 Y-38.1038
G1 X26.3321 Y-38.0803
G1 X26.3415 Y-38.0775
G1 X26.4329 Y-38.0446
G1 X26.5208 Y-38.0032
G1 X26.5294 Y-37.9986
G1 X26.6127 Y-37.9486
G1 X26.6908 Y-37.8908
G1 X26.6984 Y-37.8846
G1 X26.7702 Y-37.8192
G1 X26.8388 Y-37.7436
G1 X26.8967 Y-37.6657
G1 X26.9022 Y-37.6575
G1 X26.9520 Y-37.5742
G1 X26.9956 Y-37.4819
G1 X27.0285 Y-37.3905
G1 X27.0313 Y-37.3811
G1 X27.0548 Y-37.2869
G1 X27.0692 Y-37.1908
G1 X27.0702 Y-37.1810
G1 X27.0748 Y-37.0840
G1 X27.0702 Y-36.9870
G1 X27.0692 Y-36.9772
G1 X27.0548 Y-36.8811
G1 X27.0313 Y-36.7869
G1 X27.0285 Y-36.7775
G1 X26.9956 Y-36.6861
G1 X26.9542 Y-36.5982
G1 X26.9496 Y-36.5896
G1 X26.8996 Y-36.5063
G1 X26.8418 Y-36.4282
G1 X26.8356 Y-36.4206
G1 X26.7702 Y-36.3488
G1 X26.6984 Y-36.2834
G1 X26.6908 Y-36.2772
G1 X26.6127 Y-36.2194
G1 X26.5294 Y-36.1694
G1 X26.5208 Y-36.1648
G1 X26.4329 Y-36.1234
G1 X26.3415 Y-36.0905
G1 X26.3321 Y-36.0877
G1 X26.2379 Y-36.0642
G1 X26.1418 Y-36.0498
G1 X26.1320 Y-36.0488
G1 X26.0350 Y-36.0442
G1 X25.9331 Y-36.0492
G1 X25.8370 Y-36.0633
G1 X25.8274 Y-36.0653
G1 X25.7379 Y-36.0877
G1 X25.7285 Y-36.0905
G1 X25.6371 Y-36.1234
G1 X25.5448 Y-36.1670
G1 X25.4573 Y-36.2194
G1 X25.3754 Y-36.2802
G1 X25.2998 Y-36.3488
G1 X25.2344 Y-36.4206
G1 X25.2282 Y-36.4282
G1 X25.1733 Y-36.5023
G1 X25.1678 Y-36.5105
G1 X25.1180 Y-36.5938
G1 X25.0744 Y-36.6861
G1 X25.0400 Y-36.7822
G1 X25.0211 Y-36.8569
G1 X18.5610 Y-36.8569
G1 X18.5412 Y-36.8578
G1 X18.5216 Y-36.8605
G1 X18.5120 Y-36.8624
G1 X18.4951 Y-36.8667
G1 X18.4741 Y-36.8742
G1 X18.4562 Y-36.8826
G1 X18.4497 Y-36.8862
G1 X18.4349 Y-36.8952
G1 X18.4170 Y-36.9085
G1 X18.4005 Y-36.9234
G1 X18.0799 Y-37.2440
G1 X18.0572 Y-37.2307
G1 X17.9851 Y-37.1966
G1 X17.9079 Y-37.1687
G1 X17.9009 Y-37.1665
G1 X17.8212 Y-37.1466
G1 X17.7424 Y-37.1348
G1 X17.7326 Y-37.1338
G1 X17.6555 Y-37.1301
G1 X17.6481 Y-37.1302
G1 X17.5685 Y-37.1342
G1 X17.4897 Y-37.1458
G1 X17.4800 Y-37.1477
G1 X17.4028 Y-37.1672
G1 X17.3277 Y-37.1939
G1 X17.3186 Y-37.1976
G1 X17.2467 Y-37.2318
G1 X17.1741 Y-37.2753
G1 X17.1062 Y-37.3257
G1 X17.0435 Y-37.3825
G1 X16.9899 Y-37.4415
G1 X16.9851 Y-37.4471
G1 X16.9363 Y-37.5131
G1 X16.8952 Y-37.5814
G1 X16.8917 Y-37.5879
G1 X16.8586 Y-37.6577
G1 X16.8557 Y-37.6644
G1 X16.8289 Y-37.7395
G1 X16.8222 Y-37.7650
G1 X11.0221 Y-37.7650
G1 X11.0221 Y-26.1620
G1 X11.0210 Y-26.1397
G1 X11.0177 Y-26.1177
G1 X11.0123 Y-26.0961
G1 X11.0048 Y-26.0751
G1 X10.9953 Y-26.0550
G1 X10.9864 Y-26.0400
G1 X10.9824 Y-26.0338
G1 X10.9705 Y-26.0180
G1 X10.9556 Y-26.0014
G1 X10.9428 Y-25.9897
G1 X10.9371 Y-25.9849
G1 X10.9211 Y-25.9732
G1 X10.9042 Y-25.9629
G1 X10.8977 Y-25.9595
G1 X10.8819 Y-25.9522
G1 X10.8609 Y-25.9447
G1 X10.8417 Y-25.9398
G1 X10.8345 Y-25.9385
G1 X10.8173 Y-25.9360
G1 X10.7975 Y-25.9350
G1 X6.1648 Y-25.9349
G1 X6.1581 Y-25.9094
G1 X6.1322 Y-25.8367
G1 X6.1294 Y-25.8299
G1 X6.0942 Y-25.7557
G1 X6.0521 Y-25.6852
G1 X6.0479 Y-25.6791
G1 X6.0003 Y-25.6152
G1 X5.9469 Y-25.5560
G1 X5.9400 Y-25.5491
G1 X5.8789 Y-25.4941
G1 X5.8129 Y-25.4453
G1 X5.7403 Y-25.4018
G1 X5.6639 Y-25.3656
G1 X5.5889 Y-25.3387
G1 X5.5795 Y-25.3358
G1 X5.5070 Y-25.3176
G1 X5.4973 Y-25.3157
G1 X5.4185 Y-25.3042
G1 X5.3365 Y-25.3000
G1 X5.3291 Y-25.3001
G1 X5.2495 Y-25.3042
G1 X5.1707 Y-25.3157
G1 X5.1610 Y-25.3176
G1 X5.0885 Y-25.3358
G1 X5.0791 Y-25.3387
G1 X5.0041 Y-25.3656
G1 X4.9277 Y-25.4018
G1 X4.8551 Y-25.4453
G1 X4.7910 Y-25.4926
G1 X4.7834 Y-25.4989
G1 X4.7280 Y-25.5491
G1 X4.7211 Y-25.5560
G1 X4.6677 Y-25.6152
G1 X4.6173 Y-25.6831
G1 X4.5738 Y-25.7557
G1 X4.5396 Y-25.8276
G1 X4.5358 Y-25.8367
G1 X4.5084 Y-25.9141
G1 X4.4886 Y-25.9938
G1 X4.4762 Y-26.0775
G1 X4.4720 Y-26.1620
G1 X4.4762 Y-26.2465
G1 X4.4886 Y-26.3302
G1 X4.5091 Y-26.4122
G1 X4.5376 Y-26.4919
G1 X4.5738 Y-26.5683
G1 X4.6173 Y-26.6409
G1 X4.6677 Y-26.7088
G1 X4.7245 Y-26.7715
G1 X4.7872 Y-26.8283
G1 X4.8551 Y-26.8787
G1 X4.9277 Y-26.9222
G1 X5.0041 Y-26.9584
G1 X5.0791 Y-26.9853
G1 X5.0861 Y-26.9876
G1 X5.1658 Y-27.0074
G1 X5.2495 Y-27.0198
G1 X5.3340 Y-27.0240
G1 X5.4185 Y-27.0198
G1 X5.5022 Y-27.0074
G1 X5.5842 Y-26.9869
G1 X5.6639 Y-26.9584
G1 X5.7360 Y-26.9244
G1 X5.7425 Y-26.9210
G1 X5.8129 Y-26.8787
G1 X5.8808 Y-26.8283
G1 X5.9435 Y-26.7715
G1 X5.9971 Y-26.7126
G1 X6.0019 Y-26.7069
G1 X6.0507 Y-26.6409
G1 X6.0918 Y-26.5726
G1 X6.0953 Y-26.5662
G1 X6.1284 Y-26.4964
G1 X6.1313 Y-26.4896
G1 X6.1581 Y-26.4146
G1 X6.1648 Y-26.3891
G0 Z2.0000
G0 X6.2729 Y-26.5391
F1000
G1 Z0.0000 F1000
F300
G1 X10.4179 Y-26.5391
G1 X10.4180 Y-37.9982
G1 X10.4198 Y-38.0290
G1 X10.4231 Y-38.0535
G1 X10.4265 Y-38.0716
G1 X10.4342 Y-38.1015
G1 X10.4422 Y-38.1249
G1 X10.4491 Y-38.1420
G1 X10.4625 Y-38.1698
G1 X10.4749 Y-38.1912
G1 X10.4850 Y-38.2066
G1 X10.5035 Y-38.2312
G1 X10.5199 Y-38.2498
G1 X10.5328 Y-38.2629
G1 X10.5558 Y-38.2835
G1 X10.5755 Y-38.2985
G1 X10.5907 Y-38.3089
G1 X10.6173 Y-38.3246
G1 X10.6395 Y-38.3354
G1 X10.6564 Y-38.3427
G1 X10.6797 Y-38.3510
G1 X10.6974 Y-38.3561
G1 X10.7214 Y-38.3619
G1 X10.7519 Y-38.3666
G1 X10.7703 Y-38.3682
G1 X10.7950 Y-38.3691
G1 X16.7141 Y-38.3691
G1 X16.7180 Y-38.3793
G1 X16.7230 Y-38.3905
G1 X16.7550 Y-38.4581
G1 X16.7605 Y-38.4691
G1 X16.7665 Y-38.4798
G1 X16.8050 Y-38.5439
G1 X16.8116 Y-38.5543
G1 X16.8186 Y-38.5643
G1 X16.8632 Y-38.6244
G1 X16.8707 Y-38.6340
G1 X16.8787 Y-38.6433
G1 X16.9289 Y-38.6987
G1 X16.9374 Y-38.7076
G1 X16.9463 Y-38.7161
G1 X17.0017 Y-38.7663
G1 X17.0110 Y-38.7743
G1 X17.0207 Y-38.7819
G1 X17.0807 Y-38.8264
G1 X17.0908 Y-38.8335
G1 X17.1011 Y-38.8401
G1 X17.1653 Y-38.8785
G1 X17.1759 Y-38.8845
G1 X17.1869 Y-38.8901
G1 X17.2545 Y-38.9220
G1 X17.2657 Y-38.9270
G1 X17.2772 Y-38.9314
G1 X17.3476 Y-38.9566
G1 X17.3592 Y-38.9605
G1 X17.3711 Y-38.9637
G1 X17.4436 Y-38.9819
G1 X17.4556 Y-38.9846
G1 X17.4677 Y-38.9867
G1 X17.5416 Y-38.9977
G1 X17.5538 Y-38.9992
G1 X17.5660 Y-39.0001
G1 X17.6407 Y-39.0037
G1 X17.6530 Y-39.0040
G1 X17.6653 Y-39.0037
G1 X17.7400 Y-39.0001
G1 X17.7522 Y-38.9992
G1 X17.7644 Y-38.9977
G1 X17.8383 Y-38.9867
G1 X17.8504 Y-38.9846
G1 X17.8624 Y-38.9819
G1 X17.9349 Y-38.9637
G1 X17.9468 Y-38.9605
G1 X17.9584 Y-38.9566
G1 X18.0288 Y-38.9314
G1 X18.0403 Y-38.9270
G1 X18.0515 Y-38.9220
G1 X18.1191 Y-38.8901
G1 X18.1301 Y-38.8845
G1 X18.1407 Y-38.8785
G1 X18.2049 Y-38.8401
G1 X18.2152 Y-38.8335
G1 X18.2253 Y-38.8264
G1 X18.2853 Y-38.7819
G1 X18.2950 Y-38.7743
G1 X18.3043 Y-38.7663
G1 X18.3597 Y-38.7161
G1 X18.3686 Y-38.7076
G1 X18.3771 Y-38.6987
G1 X18.4273 Y-38.6433
G1 X18.4353 Y-38.6340
G1 X18.4428 Y-38.6244
G1 X18.4874 Y-38.5643
G1 X18.4944 Y-38.5543
G1 X18.5010 Y-38.5439
G1 X18.5395 Y-38.4798
G1 X18.5455 Y-38.4691
G1 X18.5510 Y-38.4581
G1 X18.5830 Y-38.3905
G1 X18.5880 Y-38.3793
G1 X18.5924 Y-38.3679
G1 X18.6176 Y-38.2975
G1 X18.6214 Y-38.2858
G1 X18.6247 Y-38.2740
G1 X18.6429 Y-38.2014
G1 X18.6456 Y-38.1895
G1 X18.6477 Y-38.1774
G1 X18.6586 Y-38.1034
G1 X18.6601 Y-38.0912
G1 X18.6610 Y-38.0790
G1 X18.6647 Y-38.0043
G1 X18.6650 Y-37.9920
G1 X18.6647 Y-37.9798
G1 X18.6610 Y-37.9051
G1 X18.6601 Y-37.8928
G1 X18.6586 Y-37.8807
G1 X18.6477 Y-37.8067
G1 X18.6456 Y-37.7946
G1 X18.6429 Y-37.7826
G1 X18.6247 Y-37.7101
G1 X18.6214 Y-37.6983
G1 X18.6176 Y-37.6866
G1 X18.5924 Y-37.6162
G1 X18.5880 Y-37.6048
G1 X18.5835 Y-37.5947
G1 X18.7172 Y-37.4611
G1 X24.9074 Y-37.4611
G1 X24.9314 Y-37.5279
G1 X24.9358 Y-37.5393
G1 X24.9407 Y-37.5505
G1 X24.9802 Y-37.6339
G1 X24.9857 Y-37.6449
G1 X24.9917 Y-37.6555
G1 X25.0392 Y-37.7347
G1 X25.0457 Y-37.7450
G1 X25.0528 Y-37.7550
G1 X25.1077 Y-37.8291
G1 X25.1153 Y-37.8388
G1 X25.1233 Y-37.8481
G1 X25.1852 Y-37.9164
G1 X25.1937 Y-37.9253
G1 X25.2026 Y-37.9338
G1 X25.2709 Y-37.9957
G1 X25.2802 Y-38.0037
G1 X25.2899 Y-38.0113
G1 X25.3640 Y-38.0662
G1 X25.3740 Y-38.0733
G1 X25.3843 Y-38.0798
G1 X25.4635 Y-38.1273
G1 X25.4741 Y-38.1333
G1 X25.4851 Y-38.1388
G1 X25.5685 Y-38.1783
G1 X25.5797 Y-38.1832
G1 X25.5911 Y-38.1876
G1 X25.6780 Y-38.2187
G1 X25.6896 Y-38.2226
G1 X25.7014 Y-38.2258
G1 X25.7909 Y-38.2482
G1 X25.8029 Y-38.2509
G1 X25.8150 Y-38.2530
G1 X25.9062 Y-38.2666
G1 X25.9184 Y-38.2681
G1 X25.9306 Y-38.2690
G1 X26.0289 Y-38.2737
G1 X26.0473 Y-38.2735
G1 X26.1394 Y-38.2690
G1 X26.1516 Y-38.2681
G1 X26.1638 Y-38.2666
G1 X26.2550 Y-38.2530
G1 X26.2671 Y-38.2509
G1 X26.2791 Y-38.2482
G1 X26.3686 Y-38.2258
G1 X26.3804 Y-38.2226
G1 X26.3920 Y-38.2187
G1 X26.4789 Y-38.1876
G1 X26.4903 Y-38.1832
G1 X26.5015 Y-38.1783
G1 X26.5849 Y-38.1388
G1 X26.5959 Y-38.1333
G1 X26.6065 Y-38.1273
G1 X26.6857 Y-38.0798
G1 X26.6960 Y-38.0733
G1 X26.7060 Y-38.0662
G1 X26.7801 Y-38.0113
G1 X26.7898 Y-38.0037
G1 X26.7991 Y-37.9957
G1 X26.8674 Y-37.9338
G1 X26.8763 Y-37.9253
G1 X26.8848 Y-37.9164
G1 X26.9467 Y-37.8481
G1 X26.9547 Y-37.8388
G1 X26.9623 Y-37.8291
G1 X27.0172 Y-37.7550
G1 X27.0243 Y-37.7450
G1 X27.0308 Y-37.7347
G1 X27.0783 Y-37.6555
G1 X27.0843 Y-37.6449
G1 X27.0898 Y-37.6339
G1 X27.1293 Y-37.5505
G1 X27.1342 Y-37.5393
G1 X27.1386 Y-37.5279
G1 X27.1697 Y-37.4410
G1 X27.1736 Y-37.4294
G1 X27.1768 Y-37.4176
G1 X27.1992 Y-37.3281
G1 X27.2019 Y-37.3161
G1 X27.2040 Y-37.3040
G1 X27.2176 Y-37.2128
G1 X27.2191 Y-37.2006
G1 X27.2200 Y-37.1884
G1 X27.2245 Y-37.0963
G1 X27.2248 Y-37.0840
G1 X27.2245 Y-37.0717
G1 X27.2200 Y-36.9796
G1 X27.2191 Y-36.9674
G1 X27.2176 Y-36.9552
G1 X27.2040 Y-36.8640
G1 X27.2019 Y-36.8519
G1 X27.1992 Y-36.8399
G1 X27.1768 Y-36.7504
G1 X27.1736 Y-36.7386
G1 X27.1697 Y-36.7270
G1 X27.1386 Y-36.6401
G1 X27.1342 Y-36.6287
G1 X27.1293 Y-36.6175
G1 X27.0898 Y-36.5341
G1 X27.0843 Y-36.5231
G1 X27.0783 Y-36.5125
G1 X27.0308 Y-36.4333
G1 X27.0243 Y-36.4230
G1 X27.0172 Y-36.4130
G1 X26.9623 Y-36.3389
G1 X26.9547 Y-36.3292
G1 X26.9467 Y-36.3199
G1 X26.8848 Y-36.2516
G1 X26.8763 Y-36.2427
G1 X26.8674 Y-36.2342
G1 X26.7991 Y-36.1723
G1 X26.7898 Y-36.1643
G1 X26.7801 Y-36.1567
G1 X26.7060 Y-36.1018
G1 X26.6960 Y-36.0947
G1 X26.6857 Y-36.0882
G1 X26.6065 Y-36.0407
G1 X26.5959 Y-36.0347
G1 X26.5849 Y-36.0292
G1 X26.5015 Y-35.9897
G1 X26.4903 Y-35.9848
G1 X26.4789 Y-35.9804
G1 X26.3920 Y-35.9493
G1 X26.3804 Y-35.9454
G1 X26.3686 Y-35.9422
G1 X26.2791 Y-35.9198
G1 X26.2671 Y-35.9171
G1 X26.2550 Y-35.9150
G1 X26.1638 Y-35.9014
G1 X26.1516 Y-35.8999
G1 X26.1394 Y-35.8990
G1 X26.0473 Y-35.8945
G1 X26.0350 Y-35.8942
G1 X26.0227 Y-35.8945
G1 X25.9306 Y-35.8990
G1 X25.9184 Y-35.8999
G1 X25.9062 Y-35.9014
G1 X25.8150 Y-35.9150
G1 X25.8029 Y-35.9171
G1 X25.7909 Y-35.9198
G1 X25.7014 Y-35.9422
G1 X25.6896 Y-35.9454
G1 X25.6780 Y-35.9493
G1 X25.5911 Y-35.9804
G1 X25.5797 Y-35.9848
G1 X25.5685 Y-35.9897
G1 X25.4851 Y-36.0292
G1 X25.4741 Y-36.0347
G1 X25.4635 Y-36.0407
G1 X25.3843 Y-36.0882
G1 X25.3689 Y-36.0982
G1 X25.2899 Y-36.1567
G1 X25.2802 Y-36.1643
G1 X25.2709 Y-36.1723
G1 X25.2026 Y-36.2342
G1 X25.1937 Y-36.2427
G1 X25.1852 Y-36.2516
G1 X25.1233 Y-36.3199
G1 X25.1153 Y-36.3292
G1 X25.1077 Y-36.3389
G1 X25.0528 Y-36.4130
G1 X25.0457 Y-36.4230
G1 X25.0392 Y-36.4333
G1 X24.9917 Y-36.5125
G1 X24.9857 Y-36.5231
G1 X24.9802 Y-36.5341
G1 X24.9407 Y-36.6175
G1 X24.9358 Y-36.6287
G1 X24.9314 Y-36.6401
G1 X24.9074 Y-36.7069
G1 X18.5610 Y-36.7069
G1 X18.5302 Y-36.7082
G1 X18.5180 Y-36.7094
G1 X18.4996 Y-36.7121
G1 X18.4815 Y-36.7155
G1 X18.4516 Y-36.7232
G1 X18.4282 Y-36.7312
G1 X18.4111 Y-36.7381
G1 X18.3833 Y-36.7515
G1 X18.3567 Y-36.7671
G1 X18.3415 Y-36.7775
G1 X18.3218 Y-36.7925
G1 X18.2988 Y-36.8131
G1 X18.0503 Y-37.0615
G1 X18.0403 Y-37.0571
G1 X18.0288 Y-37.0527
G1 X17.9584 Y-37.0275
G1 X17.9468 Y-37.0236
G1 X17.9349 Y-37.0203
G1 X17.8624 Y-37.0022
G1 X17.8504 Y-36.9995
G1 X17.8383 Y-36.9974
G1 X17.7644 Y-36.9864
G1 X17.7522 Y-36.9849
G1 X17.7400 Y-36.9840
G1 X17.6653 Y-36.9803
G1 X17.6530 Y-36.9800
G1 X17.6407 Y-36.9803
G1 X17.5660 Y-36.9840
G1 X17.5538 Y-36.9849
G1 X17.5416 Y-36.9864
G1 X17.4677 Y-36.9974
G1 X17.4556 Y-36.9995
G1 X17.4436 Y-37.0022
G1 X17.3711 Y-37.0203
G1 X17.3592 Y-37.0236
G1 X17.3476 Y-37.0275
G1 X17.2772 Y-37.0527
G1 X17.2657 Y-37.0571
G1 X17.2545 Y-37.0620
G1 X17.1814 Y-37.0967
G1 X17.1653 Y-37.1056
G1 X17.1011 Y-37.1440
G1 X17.0908 Y-37.1506
G1 X17.0807 Y-37.1577
G1 X17.0207 Y-37.2022
G1 X17.0110 Y-37.2098
G1 X17.0017 Y-37.2178
G1 X16.9463 Y-37.2680
G1 X16.9374 Y-37.2764
G1 X16.9289 Y-37.2853
G1 X16.8787 Y-37.3407
G1 X16.8707 Y-37.3500
G1 X16.8632 Y-37.3597
G1 X16.8186 Y-37.4198
G1 X16.8116 Y-37.4298
G1 X16.8050 Y-37.4402
G1 X16.7665 Y-37.5043
G1 X16.7605 Y-37.5150
G1 X16.7550 Y-37.5259
G1 X16.7230 Y-37.5935
G1 X16.7180 Y-37.6048
G1 X16.7141 Y-37.6150
G1 X11.1721 Y-37.6150
G1 X11.1721 Y-26.1620
G1 X11.1718 Y-26.1497
G1 X11.1702 Y-26.1250
G1 X11.1687 Y-26.1129
G1 X11.1648 Y-26.0884
G1 X11.1591 Y-26.0644
G1 X11.1558 Y-26.0525
G1 X11.1478 Y-26.0292
G1 X11.1409 Y-26.0121
G1 X11.1275 Y-25.9843
G1 X11.1151 Y-25.9629
G1 X11.1050 Y-25.9475
G1 X11.0865 Y-25.9228
G1 X11.0659 Y-25.8998
G1 X11.0572 Y-25.8911
G1 X11.0435 Y-25.8785
G1 X11.0294 Y-25.8667
G1 X11.0045 Y-25.8485
G1 X10.9781 Y-25.8324
G1 X10.9618 Y-25.8239
G1 X10.9393 Y-25.8136
G1 X10.9103 Y-25.8030
G1 X10.8986 Y-25.7995
G1 X10.8805 Y-25.7949
G1 X10.8625 Y-25.7911
G1 X10.8320 Y-25.7868
G1 X10.8073 Y-25.7852
G1 X10.7950 Y-25.7849
G1 X6.2729 Y-25.7849
G1 X6.2690 Y-25.7747
G1 X6.2640 Y-25.7635
G1 X6.2320 Y-25.6959
G1 X6.2265 Y-25.6849
G1 X6.2205 Y-25.6743
G1 X6.1820 Y-25.6101
G1 X6.1754 Y-25.5998
G1 X6.1684 Y-25.5897
G1 X6.1238 Y-25.5297
G1 X6.1163 Y-25.5200
G1 X6.1083 Y-25.5107
G1 X6.0581 Y-25.4553
G1 X6.0496 Y-25.4464
G1 X6.0407 Y-25.4379
G1 X5.9853 Y-25.3877
G1 X5.9760 Y-25.3797
G1 X5.9663 Y-25.3722
G1 X5.9063 Y-25.3276
G1 X5.8962 Y-25.3206
G1 X5.8859 Y-25.3140
G1 X5.8217 Y-25.2755
G1 X5.8111 Y-25.2695
G1 X5.8001 Y-25.2640
G1 X5.7325 Y-25.2320
G1 X5.7213 Y-25.2270
G1 X5.7098 Y-25.2226
G1 X5.6394 Y-25.1974
G1 X5.6278 Y-25.1936
G1 X5.6159 Y-25.1903
G1 X5.5434 Y-25.1721
G1 X5.5314 Y-25.1694
G1 X5.5193 Y-25.1673
G1 X5.4454 Y-25.1564
G1 X5.4332 Y-25.1549
G1 X5.4210 Y-25.1540
G1 X5.3401 Y-25.1501
G1 X5.3217 Y-25.1503
G1 X5.2470 Y-25.1540
G1 X5.2348 Y-25.1549
G1 X5.2226 Y-25.1564
G1 X5.1487 Y-25.1673
G1 X5.1366 Y-25.1694
G1 X5.1246 Y-25.1721
G1 X5.0521 Y-25.1903
G1 X5.0402 Y-25.1936
G1 X5.0286 Y-25.1974
G1 X4.9582 Y-25.2226
G1 X4.9467 Y-25.2270
G1 X4.9355 Y-25.2320
G1 X4.8679 Y-25.2640
G1 X4.8569 Y-25.2695
G1 X4.8463 Y-25.2755
G1 X4.7821 Y-25.3140
G1 X4.7718 Y-25.3206
G1 X4.7617 Y-25.3276
G1 X4.7017 Y-25.3722
G1 X4.6920 Y-25.3797
G1 X4.6827 Y-25.3877
G1 X4.6273 Y-25.4379
G1 X4.6184 Y-25.4464
G1 X4.6099 Y-25.4553
G1 X4.5597 Y-25.5107
G1 X4.5517 Y-25.5200
G1 X4.5442 Y-25.5297
G1 X4.4996 Y-25.5897
G1 X4.4926 Y-25.5998
G1 X4.4860 Y-25.6101
G1 X4.4475 Y-25.6743
G1 X4.4415 Y-25.6849
G1 X4.4360 Y-25.6959
G1 X4.4040 Y-25.7635
G1 X4.3990 Y-25.7747
G1 X4.3946 Y-25.7862
G1 X4.3694 Y-25.8566
G1 X4.3656 Y-25.8682
G1 X4.3623 Y-25.8801
G1 X4.3441 Y-25.9526
G1 X4.3414 Y-25.9646
G1 X4.3393 Y-25.9767
G1 X4.3284 Y-26.0506
G1 X4.3269 Y-26.0628
G1 X4.3260 Y-26.0750
G1 X4.3223 Y-26.1497
G1 X4.3220 Y-26.1620
G1 X4.3223 Y-26.1743
G1 X4.3260 Y-26.2490
G1 X4.3269 Y-26.2612
G1 X4.3284 Y-26.2734
G1 X4.3393 Y-26.3473
G1 X4.3414 Y-26.3594
G1 X4.3441 Y-26.3714
G1 X4.3623 Y-26.4439
G1 X4.3656 Y-26.4558
G1 X4.3694 Y-26.4674
G1 X4.3946 Y-26.5378
G1 X4.3990 Y-26.5493
G1 X4.4040 Y-26.5605
G1 X4.4360 Y-26.6281
G1 X4.4415 Y-26.6391
G1 X4.4475 Y-26.6497
G1 X4.4860 Y-26.7139
G1 X4.4926 Y-26.7242
G1 X4.4996 Y-26.7343
G1 X4.5442 Y-26.7943
G1 X4.5517 Y-26.8040
G1 X4.5597 Y-26.8133
G1 X4.6099 Y-26.8687
G1 X4.6184 Y-26.8776
G1 X4.6273 Y-26.8861
G1 X4.6827 Y-26.9363
G1 X4.6920 Y-26.9443
G1 X4.7017 Y-26.9518
G1 X4.7617 Y-26.9964
G1 X4.7718 Y-27.0034
G1 X4.7821 Y-27.0100
G1 X4.8463 Y-27.0485
G1 X4.8569 Y-27.0545
G1 X4.8679 Y-27.0600
G1 X4.9355 Y-27.0920
G1 X4.9467 Y-27.0970
G1 X4.9582 Y-27.1014
G1 X5.0286 Y-27.1266
G1 X5.0402 Y-27.1304
G1 X5.0521 Y-27.1337
G1 X5.1246 Y-27.1519
G1 X5.1366 Y-27.1546
G1 X5.1487 Y-27.1567
G1 X5.2226 Y-27.1676
G1 X5.2348 Y-27.1691
G1 X5.2470 Y-27.1700
G1 X5.3217 Y-27.1737
G1 X5.3340 Y-27.1740
G1 X5.3463 Y-27.1737
G1 X5.4210 Y-27.1700
G1 X5.4332 Y-27.1691
G1 X5.4454 Y-27.1676
G1 X5.5193 Y-27.1567
G1 X5.5314 Y-27.1546
G1 X5.5434 Y-27.1519
G1 X5.6159 Y-27.1337
G1 X5.6278 Y-27.1304
G1 X5.6394 Y-27.1266
G1 X5.7098 Y-27.1014
G1 X5.7213 Y-27.0970
G1 X5.7325 Y-27.0920
G1 X5.8001 Y-27.0600
G1 X5.8111 Y-27.0545
G1 X5.8217 Y-27.0485
G1 X5.8859 Y-27.0100
G1 X5.8962 Y-27.0034
G1 X5.9063 Y-26.9964
G1 X5.9663 Y-26.9518
G1 X5.9760 Y-26.9443
G1 X5.9853 Y-26.9363
G1 X6.0407 Y-26.8861
G1 X6.0496 Y-26.8776
G1 X6.0581 Y-26.8687
G1 X6.1083 Y-26.8133
G1 X6.1163 Y-26.8040
G1 X6.1238 Y-26.7943
G1 X6.1684 Y-26.7343
G1 X6.1754 Y-26.7242
G1 X6.1820 Y-26.7139
G1 X6.2205 Y-26.6497
G1 X6.2265 Y-26.6391
G1 X6.2320 Y-26.6281
G1 X6.2640 Y-26.5605
G1 X6.2690 Y-26.5493
G1 X6.2729 Y-26.5391
G0 Z2.0000
G0 X6.3691 Y-26.6891
F1000
G1 Z0.0000 F1000
F300
G1 X10.2679 Y-26.6891
G1 X10.2681 Y-38.0019
G1 X10.2690 Y-38.0241
G1 X10.2705 Y-38.0437
G1 X10.2747 Y-38.0755
G1 X10.2801 Y-38.1045
G1 X10.2854 Y-38.1261
G1 X10.2906 Y-38.1450
G1 X10.3010 Y-38.1754
G1 X10.3119 Y-38.2028
G1 X10.3213 Y-38.2230
G1 X10.3302 Y-38.2405
G1 X10.3463 Y-38.2683
G1 X10.3623 Y-38.2930
G1 X10.3755 Y-38.3109
G1 X10.3876 Y-38.3264
G1 X10.4088 Y-38.3505
G1 X10.4293 Y-38.3716
G1 X10.4458 Y-38.3866
G1 X10.4606 Y-38.3995
G1 X10.4861 Y-38.4190
G1 X10.5104 Y-38.4356
G1 X10.5295 Y-38.4472
G1 X10.5465 Y-38.4569
G1 X10.5754 Y-38.4710
G1 X10.6024 Y-38.4826
G1 X10.6326 Y-38.4934
G1 X10.6609 Y-38.5016
G1 X10.6922 Y-38.5090
G1 X10.7115 Y-38.5123
G1 X10.7336 Y-38.5155
G1 X10.7629 Y-38.5180
G1 X10.7950 Y-38.5191
G1 X16.6179 Y-38.5191
G1 X16.6237 Y-38.5311
G1 X16.6329 Y-38.5484
G1 X16.6763 Y-38.6210
G1 X16.6868 Y-38.6376
G1 X16.6981 Y-38.6537
G1 X16.7427 Y-38.7137
G1 X16.7548 Y-38.7292
G1 X16.7676 Y-38.7441
G1 X16.8178 Y-38.7995
G1 X16.8313 Y-38.8137
G1 X16.8456 Y-38.8272
G1 X16.9083 Y-38.8840
G1 X16.9313 Y-38.9024
G1 X16.9914 Y-38.9469
G1 X17.0074 Y-38.9582
G1 X17.0240 Y-38.9687
G1 X17.0882 Y-39.0072
G1 X17.1052 Y-39.0168
G1 X17.1228 Y-39.0257
G1 X17.1904 Y-39.0576
G1 X17.2083 Y-39.0656
G1 X17.2266 Y-39.0727
G1 X17.2970 Y-39.0978
G1 X17.3251 Y-39.1067
G1 X17.4071 Y-39.1274
G1 X17.4263 Y-39.1317
G1 X17.4456 Y-39.1351
G1 X17.5293 Y-39.1474
G1 X17.5587 Y-39.1499
G1 X17.6334 Y-39.1536
G1 X17.6530 Y-39.1540
G1 X17.6726 Y-39.1536
G1 X17.7473 Y-39.1499
G1 X17.7669 Y-39.1484
G1 X17.7864 Y-39.1460
G1 X17.8604 Y-39.1351
G1 X17.8893 Y-39.1297
G1 X17.9714 Y-39.1092
G1 X17.9903 Y-39.1040
G1 X18.0090 Y-39.0978
G1 X18.0794 Y-39.0727
G1 X18.0977 Y-39.0656
G1 X18.1156 Y-39.0576
G1 X18.1832 Y-39.0257
G1 X18.2008 Y-39.0168
G1 X18.2178 Y-39.0072
G1 X18.2820 Y-38.9687
G1 X18.2986 Y-38.9582
G1 X18.3146 Y-38.9469
G1 X18.3747 Y-38.9024
G1 X18.3902 Y-38.8903
G1 X18.4050 Y-38.8775
G1 X18.4604 Y-38.8272
G1 X18.4747 Y-38.8137
G1 X18.4882 Y-38.7995
G1 X18.5384 Y-38.7441
G1 X18.5574 Y-38.7215
G1 X18.6136 Y-38.6457
G1 X18.6297 Y-38.6210
G1 X18.6681 Y-38.5569
G1 X18.6778 Y-38.5398
G1 X18.6866 Y-38.5223
G1 X18.7186 Y-38.4547
G1 X18.7265 Y-38.4367
G1 X18.7336 Y-38.4184
G1 X18.7588 Y-38.3480
G1 X18.7650 Y-38.3294
G1 X18.7702 Y-38.3104
G1 X18.7884 Y-38.2379
G1 X18.7927 Y-38.2187
G1 X18.7960 Y-38.1994
G1 X18.8070 Y-38.1254
G1 X18.8094 Y-38.1059
G1 X18.8108 Y-38.0864
G1 X18.8145 Y-38.0117
G1 X18.8149 Y-37.9822
G1 X18.8108 Y-37.8977
G1 X18.8094 Y-37.8781
G1 X18.8070 Y-37.8587
G1 X18.7945 Y-37.7750
G1 X18.7884 Y-37.7462
G1 X18.7702 Y-37.6737
G1 X18.7650 Y-37.6547
G1 X18.7576 Y-37.6328
G1 X18.7794 Y-37.6111
G1 X24.8035 Y-37.6111
G1 X24.8446 Y-37.6980
G1 X24.8534 Y-37.7156
G1 X24.8631 Y-37.7327
G1 X24.9105 Y-37.8118
G1 X24.9210 Y-37.8284
G1 X24.9323 Y-37.8444
G1 X24.9872 Y-37.9185
G1 X24.9993 Y-37.9340
G1 X25.0121 Y-37.9488
G1 X25.0741 Y-38.0172
G1 X25.0876 Y-38.0314
G1 X25.1018 Y-38.0449
G1 X25.1702 Y-38.1069
G1 X25.1850 Y-38.1197
G1 X25.2005 Y-38.1318
G1 X25.2746 Y-38.1867
G1 X25.2906 Y-38.1980
G1 X25.3072 Y-38.2085
G1 X25.3863 Y-38.2559
G1 X25.4034 Y-38.2656
G1 X25.4210 Y-38.2744
G1 X25.5043 Y-38.3139
G1 X25.5223 Y-38.3218
G1 X25.5406 Y-38.3289
G1 X25.6274 Y-38.3600
G1 X25.6461 Y-38.3661
G1 X25.6650 Y-38.3713
G1 X25.7545 Y-38.3938
G1 X25.7736 Y-38.3981
G1 X25.7930 Y-38.4014
G1 X25.8842 Y-38.4149
G1 X25.9037 Y-38.4173
G1 X25.9233 Y-38.4188
G1 X26.0252 Y-38.4237
G1 X26.0546 Y-38.4233
G1 X26.1467 Y-38.4188
G1 X26.1663 Y-38.4173
G1 X26.1858 Y-38.4149
G1 X26.2770 Y-38.4014
G1 X26.2964 Y-38.3981
G1 X26.3155 Y-38.3938
G1 X26.4050 Y-38.3713
G1 X26.4239 Y-38.3661
G1 X26.4426 Y-38.3600
G1 X26.5294 Y-38.3289
G1 X26.5477 Y-38.3218
G1 X26.5657 Y-38.3139
G1 X26.6490 Y-38.2744
G1 X26.6666 Y-38.2656
G1 X26.6837 Y-38.2559
G1 X26.7628 Y-38.2085
G1 X26.7794 Y-38.1980
G1 X26.7954 Y-38.1867
G1 X26.8695 Y-38.1318
G1 X26.8850 Y-38.1197
G1 X26.8998 Y-38.1069
G1 X26.9682 Y-38.0449
G1 X26.9824 Y-38.0314
G1 X26.9959 Y-38.0172
G1 X27.0579 Y-37.9488
G1 X27.0707 Y-37.9340
G1 X27.0828 Y-37.9185
G1 X27.1377 Y-37.8444
G1 X27.1490 Y-37.8284
G1 X27.1595 Y-37.8118
G1 X27.2069 Y-37.7327
G1 X27.2166 Y-37.7156
G1 X27.2254 Y-37.6980
G1 X27.2649 Y-37.6147
G1 X27.2728 Y-37.5967
G1 X27.2799 Y-37.5784
G1 X27.3110 Y-37.4916
G1 X27.3171 Y-37.4729
G1 X27.3223 Y-37.4540
G1 X27.3448 Y-37.3645
G1 X27.3491 Y-37.3454
G1 X27.3524 Y-37.3260
G1 X27.3659 Y-37.2348
G1 X27.3683 Y-37.2153
G1 X27.3698 Y-37.1957
G1 X27.3743 Y-37.1036
G1 X27.3748 Y-37.0840
G1 X27.3743 Y-37.0644
G1 X27.3698 Y-36.9723
G1 X27.3683 Y-36.9527
G1 X27.3659 Y-36.9332
G1 X27.3524 Y-36.8420
G1 X27.3491 Y-36.8226
G1 X27.3448 Y-36.8035
G1 X27.3223 Y-36.7140
G1 X27.3171 Y-36.6951
G1 X27.3110 Y-36.6764
G1 X27.2799 Y-36.5896
G1 X27.2728 Y-36.5713
G1 X27.2649 Y-36.5533
G1 X27.2254 Y-36.4700
G1 X27.2166 Y-36.4524
G1 X27.2069 Y-36.4353
G1 X27.1595 Y-36.3562
G1 X27.1490 Y-36.3396
G1 X27.1377 Y-36.3236
G1 X27.0828 Y-36.2495
G1 X27.0707 Y-36.2340
G1 X27.0579 Y-36.2192
G1 X26.9959 Y-36.1508
G1 X26.9824 Y-36.1366
G1 X26.9682 Y-36.1231
G1 X26.8998 Y-36.0611
G1 X26.8850 Y-36.0483
G1 X26.8695 Y-36.0362
G1 X26.7954 Y-35.9813
G1 X26.7794 Y-35.9700
G1 X26.7628 Y-35.9595
G1 X26.6837 Y-35.9121
G1 X26.6666 Y-35.9024
G1 X26.6490 Y-35.8936
G1 X26.5657 Y-35.8541
G1 X26.5477 Y-35.8462
G1 X26.5294 Y-35.8391
G1 X26.4426 Y-35.8080
G1 X26.4239 Y-35.8019
G1 X26.4050 Y-35.7967
G1 X26.3155 Y-35.7742
G1 X26.2964 Y-35.7699
G1 X26.2770 Y-35.7666
G1 X26.1858 Y-35.7531
G1 X26.1565 Y-35.7498
G1 X26.0448 Y-35.7443
G1 X26.0154 Y-35.7447
G1 X25.9233 Y-35.7492
G1 X25.9037 Y-35.7507
G1 X25.8842 Y-35.7531
G1 X25.7930 Y-35.7666
G1 X25.7736 Y-35.7699
G1 X25.7545 Y-35.7742
G1 X25.6650 Y-35.7967
G1 X25.6461 Y-35.8019
G1 X25.6274 Y-35.8080
G1 X25.5406 Y-35.8391
G1 X25.5223 Y-35.8462
G1 X25.5043 Y-35.8541
G1 X25.4210 Y-35.8936
G1 X25.4034 Y-35.9024
G1 X25.3863 Y-35.9121
G1 X25.3072 Y-35.9595
G1 X25.2906 Y-35.9700
G1 X25.2746 Y-35.9813
G1 X25.2005 Y-36.0362
G1 X25.1850 Y-36.0483
G1 X25.1702 Y-36.0611
G1 X25.1018 Y-36.1231
G1 X25.0876 Y-36.1366
G1 X25.0741 Y-36.1508
G1 X25.0121 Y-36.2192
G1 X24.9993 Y-36.2340
G1 X24.9872 Y-36.2495
G1 X24.9323 Y-36.3236
G1 X24.9210 Y-36.3396
G1 X24.9105 Y-36.3562
G1 X24.8631 Y-36.4353
G1 X24.8534 Y-36.4524
G1 X24.8446 Y-36.4700
G1 X24.8035 Y-36.5569
G1 X18.5610 Y-36.5569
G1 X18.5414 Y-36.5574
G1 X18.5192 Y-36.5586
G1 X18.4899 Y-36.5619
G1 X18.4582 Y-36.5671
G1 X18.4270 Y-36.5744
G1 X18.3987 Y-36.5826
G1 X18.3777 Y-36.5900
G1 X18.3593 Y-36.5971
G1 X18.3301 Y-36.6103
G1 X18.3040 Y-36.6239
G1 X18.2764 Y-36.6404
G1 X18.2601 Y-36.6513
G1 X18.2343 Y-36.6704
G1 X18.2192 Y-36.6829
G1 X18.1954 Y-36.7045
G1 X18.0122 Y-36.8874
G1 X17.9997 Y-36.8830
G1 X17.9809 Y-36.8773
G1 X17.8893 Y-36.8544
G1 X17.8604 Y-36.8490
G1 X17.7767 Y-36.8367
G1 X17.7473 Y-36.8342
G1 X17.6726 Y-36.8305
G1 X17.6530 Y-36.8300
G1 X17.6334 Y-36.8305
G1 X17.5489 Y-36.8348
G1 X17.5196 Y-36.8380
G1 X17.4456 Y-36.8490
G1 X17.4263 Y-36.8524
G1 X17.4071 Y-36.8567
G1 X17.3346 Y-36.8748
G1 X17.3157 Y-36.8801
G1 X17.2970 Y-36.8862
G1 X17.2266 Y-36.9114
G1 X17.2083 Y-36.9185
G1 X17.1904 Y-36.9264
G1 X17.1228 Y-36.9584
G1 X17.1052 Y-36.9672
G1 X17.0882 Y-36.9769
G1 X17.0157 Y-37.0205
G1 X16.9914 Y-37.0372
G1 X16.9313 Y-37.0817
G1 X16.9158 Y-37.0938
G1 X16.9010 Y-37.1066
G1 X16.8456 Y-37.1568
G1 X16.8313 Y-37.1704
G1 X16.8178 Y-37.1846
G1 X16.7676 Y-37.2400
G1 X16.7548 Y-37.2549
G1 X16.7427 Y-37.2704
G1 X16.6981 Y-37.3304
G1 X16.6815 Y-37.3547
G1 X16.6379 Y-37.4272
G1 X16.6282 Y-37.4443
G1 X16.6179 Y-37.4650
G1 X11.3221 Y-37.4650
G1 X11.3221 Y-26.1620
G1 X11.3216 Y-26.1424
G1 X11.3195 Y-26.1103
G1 X11.3153 Y-26.0785
G1 X11.3099 Y-26.0496
G1 X11.3021 Y-26.0184
G1 X11.2964 Y-25.9996
G1 X11.2856 Y-25.9694
G1 X11.2740 Y-25.9424
G1 X11.2598 Y-25.9135
G1 X11.2502 Y-25.8965
G1 X11.2386 Y-25.8774
G1 X11.2219 Y-25.8531
G1 X11.2024 Y-25.8276
G1 X11.1896 Y-25.8128
G1 X11.1745 Y-25.7963
G1 X11.1535 Y-25.7758
G1 X11.1294 Y-25.7546
G1 X11.1139 Y-25.7425
G1 X11.0959 Y-25.7293
G1 X11.0712 Y-25.7133
G1 X11.0435 Y-25.6972
G1 X11.0259 Y-25.6883
G1 X11.0057 Y-25.6789
G1 X10.9784 Y-25.6680
G1 X10.9480 Y-25.6576
G1 X10.9291 Y-25.6524
G1 X10.9074 Y-25.6471
G1 X10.8785 Y-25.6417
G1 X10.8564 Y-25.6386
G1 X10.8369 Y-25.6366
G1 X10.8146 Y-25.6354
G1 X10.7950 Y-25.6349
G1 X6.3691 Y-25.6349
G1 X6.3633 Y-25.6230
G1 X6.3541 Y-25.6056
G1 X6.3107 Y-25.5330
G1 X6.3002 Y-25.5164
G1 X6.2889 Y-25.5004
G1 X6.2443 Y-25.4403
G1 X6.2322 Y-25.4248
G1 X6.2194 Y-25.4100
G1 X6.1692 Y-25.3546
G1 X6.1557 Y-25.3403
G1 X6.1414 Y-25.3268
G1 X6.0860 Y-25.2766
G1 X6.0712 Y-25.2638
G1 X6.0557 Y-25.2517
G1 X5.9956 Y-25.2071
G1 X5.9713 Y-25.1905
G1 X5.8988 Y-25.1469
G1 X5.8818 Y-25.1372
G1 X5.8642 Y-25.1284
G1 X5.7966 Y-25.0964
G1 X5.7787 Y-25.0885
G1 X5.7604 Y-25.0814
G1 X5.6900 Y-25.0562
G1 X5.6713 Y-25.0500
G1 X5.6524 Y-25.0448
G1 X5.5799 Y-25.0266
G1 X5.5607 Y-25.0223
G1 X5.5414 Y-25.0190
G1 X5.4674 Y-25.0080
G1 X5.4479 Y-25.0056
G1 X5.4283 Y-25.0042
G1 X5.3536 Y-25.0005
G1 X5.3340 Y-25.0000
G1 X5.3144 Y-25.0005
G1 X5.2397 Y-25.0042
G1 X5.2103 Y-25.0067
G1 X5.1266 Y-25.0190
G1 X5.1073 Y-25.0223
G1 X5.0881 Y-25.0266
G1 X5.0156 Y-25.0448
G1 X4.9967 Y-25.0500
G1 X4.9780 Y-25.0562
G1 X4.9076 Y-25.0814
G1 X4.8893 Y-25.0885
G1 X4.8714 Y-25.0964
G1 X4.8038 Y-25.1284
G1 X4.7862 Y-25.1372
G1 X4.7692 Y-25.1469
G1 X4.7050 Y-25.1853
G1 X4.6884 Y-25.1958
G1 X4.6724 Y-25.2071
G1 X4.6123 Y-25.2517
G1 X4.5968 Y-25.2638
G1 X4.5820 Y-25.2766
G1 X4.5266 Y-25.3268
G1 X4.5123 Y-25.3403
G1 X4.4988 Y-25.3546
G1 X4.4486 Y-25.4100
G1 X4.4358 Y-25.4248
G1 X4.4237 Y-25.4403
G1 X4.3791 Y-25.5004
G1 X4.3678 Y-25.5164
G1 X4.3573 Y-25.5330
G1 X4.3189 Y-25.5972
G1 X4.3092 Y-25.6142
G1 X4.3004 Y-25.6318
G1 X4.2684 Y-25.6994
G1 X4.2605 Y-25.7173
G1 X4.2534 Y-25.7356
G1 X4.2282 Y-25.8060
G1 X4.2220 Y-25.8247
G1 X4.2168 Y-25.8436
G1 X4.1986 Y-25.9161
G1 X4.1943 Y-25.9353
G1 X4.1910 Y-25.9546
G1 X4.1800 Y-26.0286
G1 X4.1776 Y-26.0481
G1 X4.1762 Y-26.0677
G1 X4.1725 Y-26.1424
G1 X4.1720 Y-26.1620
G1 X4.1725 Y-26.1816
G1 X4.1762 Y-26.2563
G1 X4.1776 Y-26.2759
G1 X4.1800 Y-26.2954
G1 X4.1910 Y-26.3694
G1 X4.1943 Y-26.3887
G1 X4.1986 Y-26.4079
G1 X4.2168 Y-26.4804
G1 X4.2220 Y-26.4993
G1 X4.2282 Y-26.5180
G1 X4.2534 Y-26.5884
G1 X4.2605 Y-26.6067
G1 X4.2684 Y-26.6246
G1 X4.3004 Y-26.6922
G1 X4.3092 Y-26.7098
G1 X4.3189 Y-26.7268
G1 X4.3573 Y-26.7910
G1 X4.3678 Y-26.8076
G1 X4.3791 Y-26.8236
G1 X4.4237 Y-26.8837
G1 X4.4358 Y-26.8992
G1 X4.4486 Y-26.9140
G1 X4.4988 Y-26.9694
G1 X4.5123 Y-26.9837
G1 X4.5266 Y-26.9972
G1 X4.5820 Y-27.0474
G1 X4.5968 Y-27.0602
G1 X4.6123 Y-27.0723
G1 X4.6724 Y-27.1169
G1 X4.6884 Y-27.1282
G1 X4.7050 Y-27.1387
G1 X4.7692 Y-27.1771
G1 X4.7862 Y-27.1868
G1 X4.8038 Y-27.1956
G1 X4.8714 Y-27.2276
G1 X4.8893 Y-27.2355
G1 X4.9076 Y-27.2426
G1 X4.9780 Y-27.2678
G1 X4.9967 Y-27.2740
G1 X5.0156 Y-27.2792
G1 X5.0881 Y-27.2974
G1 X5.1073 Y-27.3017
G1 X5.1266 Y-27.3050
G1 X5.2006 Y-27.3160
G1 X5.2201 Y-27.3184
G1 X5.2397 Y-27.3198
G1 X5.3144 Y-27.3235
G1 X5.3340 Y-27.3240
G1 X5.3536 Y-27.3235
G1 X5.4283 Y-27.3198
G1 X5.4479 Y-27.3184
G1 X5.4674 Y-27.3160
G1 X5.5414 Y-27.3050
G1 X5.5607 Y-27.3017
G1 X5.5799 Y-27.2974
G1 X5.6524 Y-27.2792
G1 X5.6713 Y-27.2740
G1 X5.6900 Y-27.2678
G1 X5.7604 Y-27.2426
G1 X5.7787 Y-27.2355
G1 X5.7966 Y-27.2276
G1 X5.8642 Y-27.1956
G1 X5.8818 Y-27.1868
G1 X5.8988 Y-27.1771
G1 X5.9630 Y-27.1387
G1 X5.9796 Y-27.1282
G1 X5.9956 Y-27.1169
G1 X6.0557 Y-27.0723
G1 X6.0712 Y-27.0602
G1 X6.0860 Y-27.0474
G1 X6.1414 Y-26.9972
G1 X6.1557 Y-26.9837
G1 X6.1692 Y-26.9694
G1 X6.2194 Y-26.9140
G1 X6.2322 Y-26.8992
G1 X6.2443 Y-26.8837
G1 X6.2889 Y-26.8236
G1 X6.3002 Y-26.8076
G1 X6.3107 Y-26.7910
G1 X6.3541 Y-26.7184
G1 X6.3633 Y-26.7010
G1 X6.3691 Y-26.6891
G0 Z2.0000
G0 X2.5669 Y-30.4112
F1000
G1 Z0.0000 F1000
F300
G1 X2.5414 Y-30.4179
G1 X2.4664 Y-30.4447
G1 X2.4596 Y-30.4476
G1 X2.3898 Y-30.4807
G1 X2.3834 Y-30.4842
G1 X2.3151 Y-30.5253
G1 X2.2491 Y-30.5741
G1 X2.2434 Y-30.5789
G1 X2.1845 Y-30.6325
G1 X2.1277 Y-30.6952
G1 X2.0773 Y-30.7631
G1 X2.0350 Y-30.8335
G1 X2.0316 Y-30.8400
G1 X1.9976 Y-30.9121
G1 X1.9691 Y-30.9918
G1 X1.9486 Y-31.0738
G1 X1.9362 Y-31.1575
G1 X1.9320 Y-31.2420
G1 X1.9362 Y-31.3265
G1 X1.9486 Y-31.4102
G1 X1.9684 Y-31.4899
G1 X1.9707 Y-31.4969
G1 X1.9976 Y-31.5719
G1 X2.0338 Y-31.6483
G1 X2.0773 Y-31.7209
G1 X2.1277 Y-31.7888
G1 X2.1845 Y-31.8515
G1 X2.2472 Y-31.9083
G1 X2.3151 Y-31.9587
G1 X2.3877 Y-32.0022
G1 X2.4641 Y-32.0384
G1 X2.5438 Y-32.0669
G1 X2.6258 Y-32.0874
G1 X2.7095 Y-32.0998
G1 X2.7940 Y-32.1040
G1 X2.8785 Y-32.0998
G1 X2.9622 Y-32.0874
G1 X3.0419 Y-32.0676
G1 X3.1193 Y-32.0402
G1 X3.1284 Y-32.0364
G1 X3.2003 Y-32.0022
G1 X3.2729 Y-31.9587
G1 X3.3408 Y-31.9083
G1 X3.4000 Y-31.8549
G1 X3.4069 Y-31.8480
G1 X3.4571 Y-31.7926
G1 X3.4634 Y-31.7850
G1 X3.5107 Y-31.7209
G1 X3.5542 Y-31.6483
G1 X3.5904 Y-31.5719
G1 X3.6173 Y-31.4969
G1 X3.6202 Y-31.4875
G1 X3.6384 Y-31.4150
G1 X3.6403 Y-31.4053
G1 X3.6518 Y-31.3265
G1 X3.6560 Y-31.2420
G1 X3.6518 Y-31.1575
G1 X3.6403 Y-31.0787
G1 X3.6384 Y-31.0690
G1 X3.6202 Y-30.9965
G1 X3.6173 Y-30.9871
G1 X3.5904 Y-30.9121
G1 X3.5542 Y-30.8357
G1 X3.5107 Y-30.7631
G1 X3.4619 Y-30.6971
G1 X3.4571 Y-30.6914
G1 X3.4035 Y-30.6325
G1 X3.3446 Y-30.5789
G1 X3.3370 Y-30.5726
G1 X3.2708 Y-30.5239
G1 X3.2003 Y-30.4818
G1 X3.1261 Y-30.4466
G1 X3.1193 Y-30.4438
G1 X3.0466 Y-30.4179
G1 X3.0211 Y-30.4112
G1 X3.0211 Y-23.0871
G1 X17.5529 Y-23.0871
G1 X17.5529 Y-27.0470
G1 X17.5007 Y-27.0718
G1 X17.4302 Y-27.1140
G1 X17.3640 Y-27.1627
G1 X17.3583 Y-27.1673
G1 X17.2975 Y-27.2225
G1 X17.2439 Y-27.2815
G1 X17.2376 Y-27.2891
G1 X17.1889 Y-27.3552
G1 X17.1468 Y-27.4257
G1 X17.1126 Y-27.4977
G1 X17.1088 Y-27.5067
G1 X17.0821 Y-27.5818
G1 X17.0626 Y-27.6591
G1 X17.0607 Y-27.6687
G1 X17.0492 Y-27.7475
G1 X17.0450 Y-27.8296
G1 X17.0451 Y-27.8369
G1 X17.0492 Y-27.9165
G1 X17.0607 Y-27.9954
G1 X17.0626 Y-28.0050
G1 X17.0821 Y-28.0823
G1 X17.1088 Y-28.1573
G1 X17.1126 Y-28.1664
G1 X17.1446 Y-28.2340
G1 X17.1492 Y-28.2427
G1 X17.1903 Y-28.3109
G1 X17.2407 Y-28.3789
G1 X17.2975 Y-28.4416
G1 X17.3564 Y-28.4952
G1 X17.3621 Y-28.4999
G1 X17.4241 Y-28.5459
G1 X17.4322 Y-28.5514
G1 X17.5007 Y-28.5923
G1 X17.5726 Y-28.6264
G1 X17.5817 Y-28.6302
G1 X17.6568 Y-28.6569
G1 X17.7388 Y-28.6775
G1 X17.8176 Y-28.6893
G1 X17.8274 Y-28.6903
G1 X17.9070 Y-28.6940
G1 X17.9866 Y-28.6903
G1 X17.9964 Y-28.6893
G1 X18.0752 Y-28.6775
G1 X18.1525 Y-28.6582
G1 X18.1596 Y-28.6562
G1 X18.2323 Y-28.6302
G1 X18.2414 Y-28.6264
G1 X18.3133 Y-28.5923
G1 X18.3818 Y-28.5514
G1 X18.3899 Y-28.5459
G1 X18.4538 Y-28.4984
G1 X18.5130 Y-28.4450
G1 X18.5182 Y-28.4398
G1 X18.5701 Y-28.3826
G1 X18.5764 Y-28.3750
G1 X18.6237 Y-28.3109
G1 X18.6660 Y-28.2405
G1 X18.7014 Y-28.1664
G1 X18.7043 Y-28.1596
G1 X18.7311 Y-28.0846
G1 X18.7378 Y-28.0591
G1 X23.4200 Y-28.0591
G1 X25.1575 Y-29.7966
G1 X25.1180 Y-29.8628
G1 X25.0744 Y-29.9551
G1 X25.0400 Y-30.0512
G1 X25.0152 Y-30.1501
G1 X25.0002 Y-30.2511
G1 X24.9952 Y-30.3530
G1 X25.0002 Y-30.4549
G1 X25.0143 Y-30.5510
G1 X25.0157 Y-30.5583
G1 X25.0400 Y-30.6548
G1 X25.0744 Y-30.7509
G1 X25.1180 Y-30.8432
G1 X25.1704 Y-30.9307
G1 X25.2312 Y-31.0126
G1 X25.2998 Y-31.0882
G1 X25.3754 Y-31.1568
G1 X25.4533 Y-31.2147
G1 X25.4594 Y-31.2189
G1 X25.5448 Y-31.2700
G1 X25.6326 Y-31.3117
G1 X25.6417 Y-31.3154
G1 X25.7332 Y-31.3480
G1 X25.8274 Y-31.3717
G1 X25.8370 Y-31.3737
G1 X25.9331 Y-31.3878
G1 X26.0301 Y-31.3927
G1 X26.0399 Y-31.3927
G1 X26.1369 Y-31.3878
G1 X26.2330 Y-31.3737
G1 X26.2426 Y-31.3717
G1 X26.3368 Y-31.3480
G1 X26.4283 Y-31.3154
G1 X26.4374 Y-31.3117
G1 X26.5252 Y-31.2700
G1 X26.6085 Y-31.2202
G1 X26.6167 Y-31.2147
G1 X26.6946 Y-31.1568
G1 X26.7667 Y-31.0916
G1 X26.7736 Y-31.0847
G1 X26.8388 Y-31.0126
G1 X26.8967 Y-30.9347
G1 X26.9022 Y-30.9265
G1 X26.9520 Y-30.8432
G1 X26.9937 Y-30.7554
G1 X26.9974 Y-30.7463
G1 X27.0300 Y-30.6548
G1 X27.0537 Y-30.5606
G1 X27.0557 Y-30.5510
G1 X27.0698 Y-30.4549
G1 X27.0748 Y-30.3530
G1 X27.0698 Y-30.2511
G1 X27.0557 Y-30.1550
G1 X27.0537 Y-30.1454
G1 X27.0300 Y-30.0512
G1 X26.9974 Y-29.9597
G1 X26.9937 Y-29.9506
G1 X26.9542 Y-29.8672
G1 X26.9496 Y-29.8586
G1 X26.8996 Y-29.7753
G1 X26.8388 Y-29.6934
G1 X26.7702 Y-29.6178
G1 X26.6984 Y-29.5524
G1 X26.6927 Y-29.5477
G1 X26.6127 Y-29.4884
G1 X26.5294 Y-29.4384
G1 X26.5208 Y-29.4338
G1 X26.4329 Y-29.3924
G1 X26.3368 Y-29.3580
G1 X26.2426 Y-29.3343
G1 X26.2330 Y-29.3323
G1 X26.1418 Y-29.3188
G1 X26.1320 Y-29.3178
G1 X26.0350 Y-29.3132
G1 X25.9380 Y-29.3178
G1 X25.9282 Y-29.3188
G1 X25.8370 Y-29.3323
G1 X25.8274 Y-29.3343
G1 X25.7332 Y-29.3580
G1 X25.6371 Y-29.3924
G1 X25.5448 Y-29.4360
G1 X25.4786 Y-29.4755
G1 X23.6746 Y-27.6715
G1 X23.6581 Y-27.6565
G1 X23.6422 Y-27.6446
G1 X23.6360 Y-27.6406
G1 X23.6211 Y-27.6318
G1 X23.6054 Y-27.6242
G1 X23.5987 Y-27.6213
G1 X23.5823 Y-27.6155
G1 X23.5631 Y-27.6104
G1 X23.5535 Y-27.6085
G1 X23.5363 Y-27.6061
G1 X23.5140 Y-27.6050
G1 X18.7378 Y-27.6050
G1 X18.7311 Y-27.5795
G1 X18.7052 Y-27.5067
G1 X18.7024 Y-27.4999
G1 X18.6672 Y-27.4257
G1 X18.6251 Y-27.3552
G1 X18.5764 Y-27.2891
G1 X18.5701 Y-27.2815
G1 X18.5165 Y-27.2225
G1 X18.4557 Y-27.1673
G1 X18.3899 Y-27.1181
G1 X18.3818 Y-27.1127
G1 X18.3133 Y-27.0718
G1 X18.2369 Y-27.0357
G1 X18.1619 Y-27.0087
G1 X18.1525 Y-27.0058
G1 X18.0752 Y-26.9866
G1 X18.0071 Y-26.9764
G1 X18.0070 Y-22.8575
G1 X18.0060 Y-22.8377
G1 X18.0035 Y-22.8205
G1 X18.0016 Y-22.8109
G1 X17.9965 Y-22.7917
G1 X17.9898 Y-22.7731
G1 X17.9814 Y-22.7551
G1 X17.9714 Y-22.7380
G1 X17.9660 Y-22.7298
G1 X17.9555 Y-22.7160
G1 X17.9406 Y-22.6994
G1 X17.9240 Y-22.6845
G1 X17.9102 Y-22.6740
G1 X17.9020 Y-22.6686
G1 X17.8849 Y-22.6586
G1 X17.8669 Y-22.6502
G1 X17.8483 Y-22.6435
G1 X17.8291 Y-22.6384
G1 X17.8195 Y-22.6365
G1 X17.8023 Y-22.6340
G1 X17.7800 Y-22.6329
G1 X2.7940 Y-22.6329
G1 X2.7717 Y-22.6340
G1 X2.7497 Y-22.6373
G1 X2.7281 Y-22.6427
G1 X2.7071 Y-22.6502
G1 X2.6870 Y-22.6597
G1 X2.6679 Y-22.6712
G1 X2.6500 Y-22.6845
G1 X2.6334 Y-22.6994
G1 X2.6185 Y-22.7160
G1 X2.6052 Y-22.7339
G1 X2.5937 Y-22.7530
G1 X2.5842 Y-22.7731
G1 X2.5767 Y-22.7941
G1 X2.5713 Y-22.8157
G1 X2.5680 Y-22.8377
G1 X2.5670 Y-22.8575
G1 X2.5669 Y-30.4112
G0 Z2.0000
G0 X2.4169 Y-30.3031
F1000
G1 Z0.0000 F1000
F300
G1 X2.4067 Y-30.3070
G1 X2.3955 Y-30.3120
G1 X2.3279 Y-30.3440
G1 X2.3169 Y-30.3495
G1 X2.3063 Y-30.3555
G1 X2.2421 Y-30.3940
G1 X2.2318 Y-30.4006
G1 X2.2217 Y-30.4076
G1 X2.1617 Y-30.4522
G1 X2.1520 Y-30.4597
G1 X2.1427 Y-30.4677
G1 X2.0873 Y-30.5179
G1 X2.0784 Y-30.5264
G1 X2.0699 Y-30.5353
G1 X2.0197 Y-30.5907
G1 X2.0117 Y-30.6000
G1 X2.0042 Y-30.6097
G1 X1.9596 Y-30.6697
G1 X1.9526 Y-30.6798
G1 X1.9460 Y-30.6901
G1 X1.9075 Y-30.7543
G1 X1.9015 Y-30.7649
G1 X1.8960 Y-30.7759
G1 X1.8640 Y-30.8435
G1 X1.8590 Y-30.8547
G1 X1.8546 Y-30.8662
G1 X1.8294 Y-30.9366
G1 X1.8256 Y-30.9482
G1 X1.8223 Y-30.9601
G1 X1.8041 Y-31.0326
G1 X1.8014 Y-31.0446
G1 X1.7993 Y-31.0567
G1 X1.7884 Y-31.1306
G1 X1.7869 Y-31.1428
G1 X1.7860 Y-31.1550
G1 X1.7823 Y-31.2297
G1 X1.7820 Y-31.2420
G1 X1.7823 Y-31.2543
G1 X1.7860 Y-31.3290
G1 X1.7869 Y-31.3412
G1 X1.7884 Y-31.3534
G1 X1.7993 Y-31.4273
G1 X1.8014 Y-31.4394
G1 X1.8041 Y-31.4514
G1 X1.8223 Y-31.5239
G1 X1.8256 Y-31.5358
G1 X1.8294 Y-31.5474
G1 X1.8546 Y-31.6178
G1 X1.8590 Y-31.6293
G1 X1.8640 Y-31.6405
G1 X1.8960 Y-31.7081
G1 X1.9015 Y-31.7191
G1 X1.9075 Y-31.7297
G1 X1.9460 Y-31.7939
G1 X1.9526 Y-31.8042
G1 X1.9596 Y-31.8143
G1 X2.0042 Y-31.8743
G1 X2.0117 Y-31.8840
G1 X2.0197 Y-31.8933
G1 X2.0699 Y-31.9487
G1 X2.0784 Y-31.9576
G1 X2.0873 Y-31.9661
G1 X2.1427 Y-32.0163
G1 X2.1520 Y-32.0243
G1 X2.1617 Y-32.0318
G1 X2.2217 Y-32.0764
G1 X2.2318 Y-32.0834
G1 X2.2421 Y-32.0900
G1 X2.3063 Y-32.1285
G1 X2.3169 Y-32.1345
G1 X2.3279 Y-32.1400
G1 X2.3955 Y-32.1720
G1 X2.4067 Y-32.1770
G1 X2.4182 Y-32.1814
G1 X2.4886 Y-32.2066
G1 X2.5002 Y-32.2104
G1 X2.5121 Y-32.2137
G1 X2.5846 Y-32.2319
G1 X2.5966 Y-32.2346
G1 X2.6087 Y-32.2367
G1 X2.6826 Y-32.2476
G1 X2.6948 Y-32.2491
G1 X2.7070 Y-32.2500
G1 X2.7817 Y-32.2537
G1 X2.7940 Y-32.2540
G1 X2.8063 Y-32.2537
G1 X2.8810 Y-32.2500
G1 X2.8932 Y-32.2491
G1 X2.9054 Y-32.2476
G1 X2.9793 Y-32.2367
G1 X2.9914 Y-32.2346
G1 X3.0034 Y-32.2319
G1 X3.0759 Y-32.2137
G1 X3.0878 Y-32.2104
G1 X3.0994 Y-32.2066
G1 X3.1698 Y-32.1814
G1 X3.1813 Y-32.1770
G1 X3.1925 Y-32.1720
G1 X3.2601 Y-32.1400
G1 X3.2711 Y-32.1345
G1 X3.2817 Y-32.1285
G1 X3.3459 Y-32.0900
G1 X3.3562 Y-32.0834
G1 X3.3663 Y-32.0764
G1 X3.4263 Y-32.0318
G1 X3.4360 Y-32.0243
G1 X3.4453 Y-32.0163
G1 X3.5007 Y-31.9661
G1 X3.5096 Y-31.9576
G1 X3.5181 Y-31.9487
G1 X3.5683 Y-31.8933
G1 X3.5763 Y-31.8840
G1 X3.5838 Y-31.8743
G1 X3.6284 Y-31.8143
G1 X3.6354 Y-31.8042
G1 X3.6420 Y-31.7939
G1 X3.6805 Y-31.7297
G1 X3.6865 Y-31.7191
G1 X3.6920 Y-31.7081
G1 X3.7240 Y-31.6405
G1 X3.7290 Y-31.6293
G1 X3.7334 Y-31.6178
G1 X3.7586 Y-31.5474
G1 X3.7624 Y-31.5358
G1 X3.7657 Y-31.5239
G1 X3.7839 Y-31.4514
G1 X3.7866 Y-31.4394
G1 X3.7887 Y-31.4273
G1 X3.7996 Y-31.3534
G1 X3.8011 Y-31.3412
G1 X3.8020 Y-31.3290
G1 X3.8057 Y-31.2543
G1 X3.8060 Y-31.2420
G1 X3.8057 Y-31.2297
G1 X3.8020 Y-31.1550
G1 X3.8011 Y-31.1428
G1 X3.7996 Y-31.1306
G1 X3.7887 Y-31.0567
G1 X3.7866 Y-31.0446
G1 X3.7839 Y-31.0326
G1 X3.7657 Y-30.9601
G1 X3.7624 Y-30.9482
G1 X3.7586 Y-30.9366
G1 X3.7334 Y-30.8662
G1 X3.7290 Y-30.8547
G1 X3.7240 Y-30.8435
G1 X3.6920 Y-30.7759
G1 X3.6865 Y-30.7649
G1 X3.6805 Y-30.7543
G1 X3.6420 Y-30.6901
G1 X3.6354 Y-30.6798
G1 X3.6284 Y-30.6697
G1 X3.5838 Y-30.6097
G1 X3.5763 Y-30.6000
G1 X3.5683 Y-30.5907
G1 X3.5181 Y-30.5353
G1 X3.5096 Y-30.5264
G1 X3.5007 Y-30.5179
G1 X3.4453 Y-30.4677
G1 X3.4360 Y-30.4597
G1 X3.4263 Y-30.4522
G1 X3.3663 Y-30.4076
G1 X3.3562 Y-30.4006
G1 X3.3459 Y-30.3940
G1 X3.2817 Y-30.3555
G1 X3.2711 Y-30.3495
G1 X3.2601 Y-30.3440
G1 X3.1925 Y-30.3120
G1 X3.1813 Y-30.3070
G1 X3.1711 Y-30.3031
G1 X3.1711 Y-23.2371
G1 X17.4029 Y-23.2371
G1 X17.4029 Y-26.9554
G1 X17.3448 Y-26.9906
G1 X17.3347 Y-26.9977
G1 X17.2698 Y-27.0459
G1 X17.2557 Y-27.0578
G1 X17.2003 Y-27.1080
G1 X17.1914 Y-27.1164
G1 X17.1829 Y-27.1253
G1 X17.1327 Y-27.1807
G1 X17.1247 Y-27.1900
G1 X17.1172 Y-27.1997
G1 X17.0726 Y-27.2598
G1 X17.0656 Y-27.2698
G1 X17.0590 Y-27.2802
G1 X17.0205 Y-27.3443
G1 X17.0145 Y-27.3550
G1 X17.0090 Y-27.3659
G1 X16.9770 Y-27.4335
G1 X16.9720 Y-27.4448
G1 X16.9676 Y-27.4562
G1 X16.9424 Y-27.5266
G1 X16.9386 Y-27.5383
G1 X16.9353 Y-27.5501
G1 X16.9171 Y-27.6226
G1 X16.9144 Y-27.6346
G1 X16.9123 Y-27.6467
G1 X16.9014 Y-27.7207
G1 X16.8999 Y-27.7328
G1 X16.8990 Y-27.7451
G1 X16.8951 Y-27.8259
G1 X16.8953 Y-27.8443
G1 X16.8990 Y-27.9190
G1 X16.8999 Y-27.9312
G1 X16.9014 Y-27.9434
G1 X16.9123 Y-28.0174
G1 X16.9144 Y-28.0295
G1 X16.9171 Y-28.0414
G1 X16.9353 Y-28.1140
G1 X16.9386 Y-28.1258
G1 X16.9424 Y-28.1375
G1 X16.9676 Y-28.2079
G1 X16.9720 Y-28.2193
G1 X16.9770 Y-28.2305
G1 X17.0090 Y-28.2981
G1 X17.0145 Y-28.3091
G1 X17.0205 Y-28.3198
G1 X17.0590 Y-28.3839
G1 X17.0656 Y-28.3943
G1 X17.0726 Y-28.4043
G1 X17.1172 Y-28.4644
G1 X17.1247 Y-28.4740
G1 X17.1327 Y-28.4833
G1 X17.1829 Y-28.5387
G1 X17.1914 Y-28.5476
G1 X17.2003 Y-28.5561
G1 X17.2557 Y-28.6063
G1 X17.2650 Y-28.6143
G1 X17.2747 Y-28.6219
G1 X17.3347 Y-28.6664
G1 X17.3448 Y-28.6735
G1 X17.3551 Y-28.6801
G1 X17.4193 Y-28.7185
G1 X17.4299 Y-28.7245
G1 X17.4409 Y-28.7301
G1 X17.5085 Y-28.7620
G1 X17.5197 Y-28.7670
G1 X17.5312 Y-28.7714
G1 X17.6016 Y-28.7966
G1 X17.6132 Y-28.8005
G1 X17.6251 Y-28.8037
G1 X17.6976 Y-28.8219
G1 X17.7096 Y-28.8246
G1 X17.7217 Y-28.8267
G1 X17.7956 Y-28.8377
G1 X17.8078 Y-28.8392
G1 X17.8200 Y-28.8401
G1 X17.8947 Y-28.8437
G1 X17.9070 Y-28.8440
G1 X17.9193 Y-28.8437
G1 X17.9940 Y-28.8401
G1 X18.0062 Y-28.8392
G1 X18.0184 Y-28.8377
G1 X18.0923 Y-28.8267
G1 X18.1044 Y-28.8246
G1 X18.1164 Y-28.8219
G1 X18.1889 Y-28.8037
G1 X18.2008 Y-28.8005
G1 X18.2124 Y-28.7966
G1 X18.2828 Y-28.7714
G1 X18.2943 Y-28.7670
G1 X18.3055 Y-28.7620
G1 X18.3731 Y-28.7301
G1 X18.3841 Y-28.7245
G1 X18.3947 Y-28.7185
G1 X18.4589 Y-28.6801
G1 X18.4692 Y-28.6735
G1 X18.4793 Y-28.6664
G1 X18.5393 Y-28.6219
G1 X18.5490 Y-28.6143
G1 X18.5583 Y-28.6063
G1 X18.6137 Y-28.5561
G1 X18.6226 Y-28.5476
G1 X18.6311 Y-28.5387
G1 X18.6813 Y-28.4833
G1 X18.6893 Y-28.4740
G1 X18.6968 Y-28.4644
G1 X18.7414 Y-28.4043
G1 X18.7484 Y-28.3943
G1 X18.7550 Y-28.3839
G1 X18.7935 Y-28.3198
G1 X18.7995 Y-28.3091
G1 X18.8050 Y-28.2981
G1 X18.8370 Y-28.2305
G1 X18.8420 Y-28.2193
G1 X18.8459 Y-28.2091
G1 X23.3579 Y-28.2091
G1 X24.9711 Y-29.8223
G1 X24.9407 Y-29.8865
G1 X24.9335 Y-29.9034
G1 X24.9003 Y-29.9960
G1 X24.8947 Y-30.0135
G1 X24.8708 Y-30.1089
G1 X24.8681 Y-30.1209
G1 X24.8660 Y-30.1330
G1 X24.8524 Y-30.2242
G1 X24.8504 Y-30.2425
G1 X24.8455 Y-30.3407
G1 X24.8452 Y-30.3530
G1 X24.8455 Y-30.3653
G1 X24.8500 Y-30.4574
G1 X24.8509 Y-30.4696
G1 X24.8524 Y-30.4818
G1 X24.8660 Y-30.5730
G1 X24.8681 Y-30.5851
G1 X24.8708 Y-30.5971
G1 X24.8932 Y-30.6866
G1 X24.8964 Y-30.6984
G1 X24.9003 Y-30.7100
G1 X24.9314 Y-30.7969
G1 X24.9358 Y-30.8083
G1 X24.9407 Y-30.8195
G1 X24.9802 Y-30.9029
G1 X24.9857 Y-30.9139
G1 X24.9917 Y-30.9245
G1 X25.0392 Y-31.0037
G1 X25.0457 Y-31.0140
G1 X25.0528 Y-31.0240
G1 X25.1077 Y-31.0981
G1 X25.1153 Y-31.1078
G1 X25.1233 Y-31.1171
G1 X25.1852 Y-31.1854
G1 X25.1937 Y-31.1943
G1 X25.2026 Y-31.2028
G1 X25.2709 Y-31.2647
G1 X25.2802 Y-31.2727
G1 X25.2899 Y-31.2803
G1 X25.3640 Y-31.3352
G1 X25.3740 Y-31.3423
G1 X25.3843 Y-31.3488
G1 X25.4688 Y-31.3994
G1 X25.4851 Y-31.4078
G1 X25.5685 Y-31.4473
G1 X25.5797 Y-31.4522
G1 X25.5911 Y-31.4566
G1 X25.6780 Y-31.4877
G1 X25.6896 Y-31.4916
G1 X25.7014 Y-31.4948
G1 X25.7909 Y-31.5172
G1 X25.8029 Y-31.5199
G1 X25.8150 Y-31.5220
G1 X25.9062 Y-31.5356
G1 X25.9184 Y-31.5371
G1 X25.9306 Y-31.5380
G1 X26.0227 Y-31.5425
G1 X26.0350 Y-31.5428
G1 X26.0473 Y-31.5425
G1 X26.1394 Y-31.5380
G1 X26.1516 Y-31.5371
G1 X26.1638 Y-31.5356
G1 X26.2550 Y-31.5220
G1 X26.2671 Y-31.5199
G1 X26.2791 Y-31.5172
G1 X26.3686 Y-31.4948
G1 X26.3804 Y-31.4916
G1 X26.3920 Y-31.4877
G1 X26.4789 Y-31.4566
G1 X26.4903 Y-31.4522
G1 X26.5015 Y-31.4473
G1 X26.5849 Y-31.4078
G1 X26.5959 Y-31.4023
G1 X26.6065 Y-31.3963
G1 X26.6857 Y-31.3488
G1 X26.6960 Y-31.3423
G1 X26.7060 Y-31.3352
G1 X26.7801 Y-31.2803
G1 X26.7898 Y-31.2727
G1 X26.7991 Y-31.2647
G1 X26.8674 Y-31.2028
G1 X26.8763 Y-31.1943
G1 X26.8848 Y-31.1854
G1 X26.9467 Y-31.1171
G1 X26.9547 Y-31.1078
G1 X26.9623 Y-31.0981
G1 X27.0172 Y-31.0240
G1 X27.0243 Y-31.0140
G1 X27.0308 Y-31.0037
G1 X27.0783 Y-30.9245
G1 X27.0843 Y-30.9139
G1 X27.0898 Y-30.9029
G1 X27.1293 Y-30.8195
G1 X27.1342 Y-30.8083
G1 X27.1386 Y-30.7969
G1 X27.1697 Y-30.7100
G1 X27.1736 Y-30.6984
G1 X27.1768 Y-30.6866
G1 X27.1992 Y-30.5971
G1 X27.2019 Y-30.5851
G1 X27.2040 Y-30.5730
G1 X27.2176 Y-30.4818
G1 X27.2191 Y-30.4696
G1 X27.2200 Y-30.4574
G1 X27.2245 Y-30.3653
G1 X27.2248 Y-30.3530
G1 X27.2245 Y-30.3407
G1 X27.2200 Y-30.2486
G1 X27.2191 Y-30.2364
G1 X27.2176 Y-30.2242
G1 X27.2040 Y-30.1330
G1 X27.2019 Y-30.1209
G1 X27.1992 Y-30.1089
G1 X27.1768 Y-30.0194
G1 X27.1736 Y-30.0076
G1 X27.1697 Y-29.9960
G1 X27.1386 Y-29.9091
G1 X27.1342 Y-29.8977
G1 X27.1293 Y-29.8865
G1 X27.0898 Y-29.8031
G1 X27.0843 Y-29.7921
G1 X27.0783 Y-29.7815
G1 X27.0308 Y-29.7023
G1 X27.0243 Y-29.6920
G1 X27.0172 Y-29.6820
G1 X26.9623 Y-29.6079
G1 X26.9547 Y-29.5982
G1 X26.9467 Y-29.5889
G1 X26.8848 Y-29.5206
G1 X26.8763 Y-29.5117
G1 X26.8674 Y-29.5032
G1 X26.7991 Y-29.4413
G1 X26.7898 Y-29.4333
G1 X26.7801 Y-29.4257
G1 X26.7060 Y-29.3708
G1 X26.6960 Y-29.3637
G1 X26.6857 Y-29.3572
G1 X26.6065 Y-29.3097
G1 X26.5959 Y-29.3037
G1 X26.5849 Y-29.2982
G1 X26.5015 Y-29.2587
G1 X26.4903 Y-29.2538
G1 X26.4789 Y-29.2494
G1 X26.3920 Y-29.2183
G1 X26.3804 Y-29.2144
G1 X26.3686 Y-29.2112
G1 X26.2791 Y-29.1888
G1 X26.2671 Y-29.1861
G1 X26.2550 Y-29.1840
G1 X26.1577 Y-29.1696
G1 X26.1394 Y-29.1680
G1 X26.0473 Y-29.1635
G1 X26.0350 Y-29.1632
G1 X26.0227 Y-29.1635
G1 X25.9306 Y-29.1680
G1 X25.9184 Y-29.1689
G1 X25.9062 Y-29.1704
G1 X25.8089 Y-29.1849
G1 X25.7909 Y-29.1888
G1 X25.7014 Y-29.2112
G1 X25.6838 Y-29.2163
G1 X25.5911 Y-29.2494
G1 X25.5797 Y-29.2538
G1 X25.5685 Y-29.2587
G1 X25.5043 Y-29.2891
G1 X23.7763 Y-27.5611
G1 X23.7579 Y-27.5445
G1 X23.7485 Y-27.5367
G1 X23.7286 Y-27.5220
G1 X23.7132 Y-27.5120
G1 X23.6918 Y-27.4995
G1 X23.6696 Y-27.4887
G1 X23.6526 Y-27.4814
G1 X23.6351 Y-27.4751
G1 X23.6235 Y-27.4712
G1 X23.6117 Y-27.4679
G1 X23.5936 Y-27.4635
G1 X23.5816 Y-27.4611
G1 X23.5510 Y-27.4568
G1 X23.5388 Y-27.4559
G1 X23.5140 Y-27.4550
G1 X18.8459 Y-27.4550
G1 X18.8420 Y-27.4448
G1 X18.8370 Y-27.4335
G1 X18.8050 Y-27.3659
G1 X18.7995 Y-27.3550
G1 X18.7935 Y-27.3443
G1 X18.7550 Y-27.2802
G1 X18.7484 Y-27.2698
G1 X18.7414 Y-27.2598
G1 X18.6968 Y-27.1997
G1 X18.6893 Y-27.1900
G1 X18.6813 Y-27.1807
G1 X18.6311 Y-27.1253
G1 X18.6226 Y-27.1164
G1 X18.6137 Y-27.1080
G1 X18.5537 Y-27.0537
G1 X18.5393 Y-27.0422
G1 X18.4793 Y-26.9977
G1 X18.4692 Y-26.9906
G1 X18.4589 Y-26.9840
G1 X18.3947 Y-26.9456
G1 X18.3786 Y-26.9367
G1 X18.3055 Y-26.9020
G1 X18.2886 Y-26.8948
G1 X18.2066 Y-26.8655
G1 X18.1949 Y-26.8619
G1 X18.1571 Y-26.8524
G1 X18.1571 Y-22.8600
G1 X18.1568 Y-22.8477
G1 X18.1552 Y-22.8230
G1 X18.1537 Y-22.8109
G1 X18.1498 Y-22.7864
G1 X18.1471 Y-22.7745
G1 X18.1408 Y-22.7505
G1 X18.1328 Y-22.7272
G1 X18.1284 Y-22.7157
G1 X18.1154 Y-22.6877
G1 X18.1096 Y-22.6769
G1 X18.0969 Y-22.6557
G1 X18.0900 Y-22.6455
G1 X18.0753 Y-22.6256
G1 X18.0675 Y-22.6161
G1 X18.0509 Y-22.5978
G1 X18.0422 Y-22.5891
G1 X18.0285 Y-22.5765
G1 X18.0192 Y-22.5685
G1 X18.0095 Y-22.5610
G1 X17.9945 Y-22.5500
G1 X17.9791 Y-22.5399
G1 X17.9631 Y-22.5304
G1 X17.9523 Y-22.5246
G1 X17.9299 Y-22.5141
G1 X17.9186 Y-22.5094
G1 X17.8895 Y-22.4992
G1 X17.8655 Y-22.4929
G1 X17.8536 Y-22.4902
G1 X17.8415 Y-22.4881
G1 X17.8170 Y-22.4848
G1 X17.7923 Y-22.4832
G1 X17.7800 Y-22.4829
G1 X2.7940 Y-22.4829
G1 X2.7693 Y-22.4838
G1 X2.7509 Y-22.4854
G1 X2.7265 Y-22.4891
G1 X2.7085 Y-22.4929
G1 X2.6845 Y-22.4992
G1 X2.6612 Y-22.5072
G1 X2.6441 Y-22.5141
G1 X2.6217 Y-22.5246
G1 X2.6056 Y-22.5335
G1 X2.5845 Y-22.5465
G1 X2.5596 Y-22.5647
G1 X2.5455 Y-22.5765
G1 X2.5274 Y-22.5934
G1 X2.5065 Y-22.6161
G1 X2.4987 Y-22.6256
G1 X2.4875 Y-22.6405
G1 X2.4771 Y-22.6557
G1 X2.4615 Y-22.6823
G1 X2.4506 Y-22.7045
G1 X2.4434 Y-22.7214
G1 X2.4332 Y-22.7505
G1 X2.4255 Y-22.7804
G1 X2.4221 Y-22.7985
G1 X2.4188 Y-22.8230
G1 X2.4170 Y-22.8539
G1 X2.4169 Y-30.3031
G0 Z2.0000
G0 X2.2669 Y-30.2069
F1000
G1 Z0.0000 F1000
F300
G1 X2.2550 Y-30.2127
G1 X2.2376 Y-30.2219
G1 X2.1650 Y-30.2653
G1 X2.1484 Y-30.2758
G1 X2.1324 Y-30.2871
G1 X2.0723 Y-30.3317
G1 X2.0568 Y-30.3438
G1 X2.0420 Y-30.3566
G1 X1.9866 Y-30.4068
G1 X1.9723 Y-30.4203
G1 X1.9588 Y-30.4346
G1 X1.9086 Y-30.4900
G1 X1.8958 Y-30.5048
G1 X1.8837 Y-30.5203
G1 X1.8391 Y-30.5804
G1 X1.8278 Y-30.5964
G1 X1.8173 Y-30.6130
G1 X1.7789 Y-30.6772
G1 X1.7692 Y-30.6942
G1 X1.7604 Y-30.7118
G1 X1.7284 Y-30.7794
G1 X1.7205 Y-30.7973
G1 X1.7134 Y-30.8156
G1 X1.6882 Y-30.8860
G1 X1.6820 Y-30.9047
G1 X1.6768 Y-30.9236
G1 X1.6586 Y-30.9961
G1 X1.6543 Y-31.0153
G1 X1.6510 Y-31.0346
G1 X1.6400 Y-31.1086
G1 X1.6376 Y-31.1281
G1 X1.6362 Y-31.1477
G1 X1.6325 Y-31.2224
G1 X1.6320 Y-31.2420
G1 X1.6325 Y-31.2616
G1 X1.6362 Y-31.3363
G1 X1.6376 Y-31.3559
G1 X1.6400 Y-31.3754
G1 X1.6510 Y-31.4494
G1 X1.6543 Y-31.4687
G1 X1.6586 Y-31.4879
G1 X1.6768 Y-31.5604
G1 X1.6820 Y-31.5793
G1 X1.6882 Y-31.5980
G1 X1.7134 Y-31.6684
G1 X1.7205 Y-31.6867
G1 X1.7284 Y-31.7046
G1 X1.7604 Y-31.7722
G1 X1.7692 Y-31.7898
G1 X1.7789 Y-31.8068
G1 X1.8173 Y-31.8710
G1 X1.8278 Y-31.8876
G1 X1.8391 Y-31.9036
G1 X1.8837 Y-31.9637
G1 X1.8958 Y-31.9792
G1 X1.9086 Y-31.9940
G1 X1.9588 Y-32.0494
G1 X1.9723 Y-32.0637
G1 X1.9866 Y-32.0772
G1 X2.0420 Y-32.1274
G1 X2.0568 Y-32.1402
G1 X2.0723 Y-32.1523
G1 X2.1324 Y-32.1969
G1 X2.1484 Y-32.2082
G1 X2.1650 Y-32.2187
G1 X2.2292 Y-32.2571
G1 X2.2462 Y-32.2668
G1 X2.2638 Y-32.2756
G1 X2.3314 Y-32.3076
G1 X2.3493 Y-32.3155
G1 X2.3676 Y-32.3226
G1 X2.4380 Y-32.3478
G1 X2.4567 Y-32.3540
G1 X2.4756 Y-32.3592
G1 X2.5481 Y-32.3774
G1 X2.5673 Y-32.3817
G1 X2.5866 Y-32.3850
G1 X2.6606 Y-32.3960
G1 X2.6801 Y-32.3984
G1 X2.6997 Y-32.3998
G1 X2.7744 Y-32.4035
G1 X2.7940 Y-32.4040
G1 X2.8136 Y-32.4035
G1 X2.8883 Y-32.3998
G1 X2.9079 Y-32.3984
G1 X2.9274 Y-32.3960
G1 X3.0014 Y-32.3850
G1 X3.0207 Y-32.3817
G1 X3.0399 Y-32.3774
G1 X3.1124 Y-32.3592
G1 X3.1313 Y-32.3540
G1 X3.1500 Y-32.3478
G1 X3.2204 Y-32.3226
G1 X3.2387 Y-32.3155
G1 X3.2566 Y-32.3076
G1 X3.3242 Y-32.2756
G1 X3.3418 Y-32.2668
G1 X3.3588 Y-32.2571
G1 X3.4230 Y-32.2187
G1 X3.4396 Y-32.2082
G1 X3.4556 Y-32.1969
G1 X3.5157 Y-32.1523
G1 X3.5312 Y-32.1402
G1 X3.5460 Y-32.1274
G1 X3.6014 Y-32.0772
G1 X3.6157 Y-32.0637
G1 X3.6292 Y-32.0494
G1 X3.6794 Y-31.9940
G1 X3.6922 Y-31.9792
G1 X3.7043 Y-31.9637
G1 X3.7489 Y-31.9036
G1 X3.7602 Y-31.8876
G1 X3.7707 Y-31.8710
G1 X3.8091 Y-31.8068
G1 X3.8188 Y-31.7898
G1 X3.8276 Y-31.7722
G1 X3.8596 Y-31.7046
G1 X3.8675 Y-31.6867
G1 X3.8746 Y-31.6684
G1 X3.8998 Y-31.5980
G1 X3.9060 Y-31.5793
G1 X3.9112 Y-31.5604
G1 X3.9294 Y-31.4879
G1 X3.9337 Y-31.4687
G1 X3.9370 Y-31.4494
G1 X3.9480 Y-31.3754
G1 X3.9504 Y-31.3559
G1 X3.9518 Y-31.3363
G1 X3.9555 Y-31.2616
G1 X3.9560 Y-31.2420
G1 X3.9555 Y-31.2224
G1 X3.9518 Y-31.1477
G1 X3.9504 Y-31.1281
G1 X3.9480 Y-31.1086
G1 X3.9370 Y-31.0346
G1 X3.9337 Y-31.0153
G1 X3.9294 Y-30.9961
G1 X3.9112 Y-30.9236
G1 X3.9060 Y-30.9047
G1 X3.8998 Y-30.8860
G1 X3.8746 Y-30.8156
G1 X3.8675 Y-30.7973
G1 X3.8596 Y-30.7794
G1 X3.8276 Y-30.7118
G1 X3.8188 Y-30.6942
G1 X3.8091 Y-30.6772
G1 X3.7707 Y-30.6130
G1 X3.7602 Y-30.5964
G1 X3.7489 Y-30.5804
G1 X3.7043 Y-30.5203
G1 X3.6859 Y-30.4973
G1 X3.6292 Y-30.4346
G1 X3.6157 Y-30.4203
G1 X3.6014 Y-30.4068
G1 X3.5460 Y-30.3566
G1 X3.5312 Y-30.3438
G1 X3.5157 Y-30.3317
G1 X3.4556 Y-30.2871
G1 X3.4396 Y-30.2758
G1 X3.4230 Y-30.2653
G1 X3.3504 Y-30.2219
G1 X3.3330 Y-30.2127
G1 X3.3211 Y-30.2069
G1 X3.3211 Y-23.3871
G1 X17.2529 Y-23.3871
G1 X17.2529 Y-26.8717
G1 X17.1775 Y-26.9277
G1 X17.1550 Y-26.9466
G1 X17.0996 Y-26.9968
G1 X17.0853 Y-27.0104
G1 X17.0718 Y-27.0246
G1 X17.0216 Y-27.0800
G1 X17.0088 Y-27.0949
G1 X16.9967 Y-27.1104
G1 X16.9521 Y-27.1704
G1 X16.9408 Y-27.1865
G1 X16.9303 Y-27.2031
G1 X16.8919 Y-27.2672
G1 X16.8822 Y-27.2843
G1 X16.8734 Y-27.3018
G1 X16.8414 Y-27.3694
G1 X16.8335 Y-27.3874
G1 X16.8264 Y-27.4057
G1 X16.8012 Y-27.4761
G1 X16.7950 Y-27.4947
G1 X16.7898 Y-27.5137
G1 X16.7716 Y-27.5862
G1 X16.7673 Y-27.6053
G1 X16.7640 Y-27.6247
G1 X16.7530 Y-27.6987
G1 X16.7506 Y-27.7181
G1 X16.7492 Y-27.7377
G1 X16.7455 Y-27.8124
G1 X16.7450 Y-27.8320
G1 X16.7455 Y-27.8517
G1 X16.7492 Y-27.9264
G1 X16.7506 Y-27.9459
G1 X16.7530 Y-27.9654
G1 X16.7640 Y-28.0394
G1 X16.7673 Y-28.0587
G1 X16.7716 Y-28.0779
G1 X16.7898 Y-28.1504
G1 X16.7950 Y-28.1694
G1 X16.8012 Y-28.1880
G1 X16.8264 Y-28.2584
G1 X16.8335 Y-28.2767
G1 X16.8414 Y-28.2947
G1 X16.8734 Y-28.3623
G1 X16.8822 Y-28.3798
G1 X16.8919 Y-28.3969
G1 X16.9303 Y-28.4610
G1 X16.9408 Y-28.4776
G1 X16.9521 Y-28.4937
G1 X16.9967 Y-28.5537
G1 X17.0088 Y-28.5692
G1 X17.0216 Y-28.5841
G1 X17.0718 Y-28.6395
G1 X17.0853 Y-28.6537
G1 X17.0996 Y-28.6672
G1 X17.1550 Y-28.7175
G1 X17.1775 Y-28.7364
G1 X17.2533 Y-28.7927
G1 X17.2780 Y-28.8087
G1 X17.3422 Y-28.8472
G1 X17.3592 Y-28.8568
G1 X17.3768 Y-28.8657
G1 X17.4444 Y-28.8976
G1 X17.4623 Y-28.9056
G1 X17.4806 Y-28.9127
G1 X17.5510 Y-28.9378
G1 X17.5697 Y-28.9440
G1 X17.5886 Y-28.9492
G1 X17.6611 Y-28.9674
G1 X17.6900 Y-28.9735
G1 X17.7736 Y-28.9860
G1 X17.8029 Y-28.9893
G1 X17.8972 Y-28.9939
G1 X17.9266 Y-28.9936
G1 X18.0111 Y-28.9893
G1 X18.0404 Y-28.9860
G1 X18.1144 Y-28.9751
G1 X18.1337 Y-28.9717
G1 X18.1529 Y-28.9674
G1 X18.2254 Y-28.9492
G1 X18.2443 Y-28.9440
G1 X18.2630 Y-28.9378
G1 X18.3334 Y-28.9127
G1 X18.3517 Y-28.9056
G1 X18.3696 Y-28.8976
G1 X18.4372 Y-28.8657
G1 X18.4548 Y-28.8568
G1 X18.4718 Y-28.8472
G1 X18.5360 Y-28.8087
G1 X18.5526 Y-28.7982
G1 X18.5686 Y-28.7869
G1 X18.6287 Y-28.7424
G1 X18.6442 Y-28.7303
G1 X18.6590 Y-28.7175
G1 X18.7144 Y-28.6672
G1 X18.7287 Y-28.6537
G1 X18.7422 Y-28.6395
G1 X18.7924 Y-28.5841
G1 X18.8052 Y-28.5692
G1 X18.8173 Y-28.5537
G1 X18.8619 Y-28.4937
G1 X18.8732 Y-28.4776
G1 X18.8837 Y-28.4610
G1 X18.9271 Y-28.3884
G1 X18.9363 Y-28.3711
G1 X18.9421 Y-28.3591
G1 X23.2957 Y-28.3591
G1 X24.7915 Y-29.8549
G1 X24.7590 Y-29.9454
G1 X24.7529 Y-29.9641
G1 X24.7477 Y-29.9830
G1 X24.7252 Y-30.0725
G1 X24.7191 Y-30.1013
G1 X24.7027 Y-30.2119
G1 X24.7002 Y-30.2413
G1 X24.6957 Y-30.3334
G1 X24.6952 Y-30.3530
G1 X24.6957 Y-30.3726
G1 X24.7002 Y-30.4647
G1 X24.7017 Y-30.4843
G1 X24.7041 Y-30.5038
G1 X24.7176 Y-30.5950
G1 X24.7209 Y-30.6144
G1 X24.7252 Y-30.6335
G1 X24.7477 Y-30.7230
G1 X24.7529 Y-30.7419
G1 X24.7590 Y-30.7606
G1 X24.7901 Y-30.8474
G1 X24.7972 Y-30.8657
G1 X24.8051 Y-30.8837
G1 X24.8446 Y-30.9670
G1 X24.8534 Y-30.9846
G1 X24.8631 Y-31.0017
G1 X24.9105 Y-31.0808
G1 X24.9210 Y-31.0974
G1 X24.9323 Y-31.1134
G1 X24.9872 Y-31.1875
G1 X24.9993 Y-31.2030
G1 X25.0121 Y-31.2178
G1 X25.0741 Y-31.2862
G1 X25.0876 Y-31.3004
G1 X25.1018 Y-31.3139
G1 X25.1775 Y-31.3824
G1 X25.2005 Y-31.4008
G1 X25.2746 Y-31.4557
G1 X25.2906 Y-31.4670
G1 X25.3072 Y-31.4775
G1 X25.3863 Y-31.5249
G1 X25.4121 Y-31.5391
G1 X25.5043 Y-31.5829
G1 X25.5223 Y-31.5908
G1 X25.5406 Y-31.5979
G1 X25.6274 Y-31.6290
G1 X25.6555 Y-31.6378
G1 X25.7640 Y-31.6650
G1 X25.7930 Y-31.6704
G1 X25.8842 Y-31.6839
G1 X25.9135 Y-31.6872
G1 X26.0252 Y-31.6927
G1 X26.0546 Y-31.6923
G1 X26.1565 Y-31.6872
G1 X26.1858 Y-31.6839
G1 X26.2770 Y-31.6704
G1 X26.2964 Y-31.6671
G1 X26.3155 Y-31.6628
G1 X26.4050 Y-31.6403
G1 X26.4239 Y-31.6351
G1 X26.4426 Y-31.6290
G1 X26.5294 Y-31.5979
G1 X26.5477 Y-31.5908
G1 X26.5657 Y-31.5829
G1 X26.6490 Y-31.5434
G1 X26.6666 Y-31.5346
G1 X26.6837 Y-31.5249
G1 X26.7628 Y-31.4775
G1 X26.7794 Y-31.4670
G1 X26.7954 Y-31.4557
G1 X26.8695 Y-31.4008
G1 X26.8850 Y-31.3887
G1 X26.8998 Y-31.3759
G1 X26.9682 Y-31.3139
G1 X26.9824 Y-31.3004
G1 X26.9959 Y-31.2862
G1 X27.0579 Y-31.2178
G1 X27.0707 Y-31.2030
G1 X27.0828 Y-31.1875
G1 X27.1377 Y-31.1134
G1 X27.1490 Y-31.0974
G1 X27.1595 Y-31.0808
G1 X27.2069 Y-31.0017
G1 X27.2166 Y-30.9846
G1 X27.2254 Y-30.9670
G1 X27.2689 Y-30.8747
G1 X27.2799 Y-30.8474
G1 X27.3110 Y-30.7606
G1 X27.3171 Y-30.7419
G1 X27.3223 Y-30.7230
G1 X27.3448 Y-30.6335
G1 X27.3491 Y-30.6144
G1 X27.3524 Y-30.5950
G1 X27.3659 Y-30.5038
G1 X27.3683 Y-30.4843
G1 X27.3698 Y-30.4647
G1 X27.3743 Y-30.3726
G1 X27.3748 Y-30.3530
G1 X27.3743 Y-30.3334
G1 X27.3698 Y-30.2413
G1 X27.3683 Y-30.2217
G1 X27.3659 Y-30.2022
G1 X27.3524 Y-30.1110
G1 X27.3491 Y-30.0916
G1 X27.3448 Y-30.0725
G1 X27.3223 Y-29.9830
G1 X27.3171 Y-29.9641
G1 X27.3110 Y-29.9454
G1 X27.2799 Y-29.8586
G1 X27.2728 Y-29.8403
G1 X27.2649 Y-29.8223
G1 X27.2211 Y-29.7301
G1 X27.2069 Y-29.7043
G1 X27.1595 Y-29.6252
G1 X27.1490 Y-29.6086
G1 X27.1377 Y-29.5926
G1 X27.0828 Y-29.5185
G1 X27.0707 Y-29.5030
G1 X27.0579 Y-29.4882
G1 X26.9959 Y-29.4198
G1 X26.9824 Y-29.4056
G1 X26.9682 Y-29.3921
G1 X26.8998 Y-29.3301
G1 X26.8850 Y-29.3173
G1 X26.8695 Y-29.3052
G1 X26.7954 Y-29.2503
G1 X26.7794 Y-29.2390
G1 X26.7628 Y-29.2285
G1 X26.6837 Y-29.1811
G1 X26.6666 Y-29.1714
G1 X26.6490 Y-29.1626
G1 X26.5657 Y-29.1231
G1 X26.5477 Y-29.1152
G1 X26.5294 Y-29.1081
G1 X26.4426 Y-29.0770
G1 X26.4239 Y-29.0709
G1 X26.4050 Y-29.0657
G1 X26.3155 Y-29.0432
G1 X26.2964 Y-29.0389
G1 X26.2770 Y-29.0356
G1 X26.1858 Y-29.0221
G1 X26.1663 Y-29.0197
G1 X26.1467 Y-29.0182
G1 X26.0546 Y-29.0137
G1 X26.0350 Y-29.0132
G1 X26.0154 Y-29.0137
G1 X25.9233 Y-29.0182
G1 X25.9037 Y-29.0197
G1 X25.8842 Y-29.0221
G1 X25.7930 Y-29.0356
G1 X25.7736 Y-29.0389
G1 X25.7545 Y-29.0432
G1 X25.6650 Y-29.0657
G1 X25.6461 Y-29.0709
G1 X25.6274 Y-29.0770
G1 X25.5369 Y-29.1095
G1 X23.8797 Y-27.4525
G1 X23.8559 Y-27.4309
G1 X23.8407 Y-27.4185
G1 X23.8150 Y-27.3994
G1 X23.7986 Y-27.3884
G1 X23.7711 Y-27.3719
G1 X23.7538 Y-27.3627
G1 X23.7248 Y-27.3490
G1 X23.6974 Y-27.3380
G1 X23.6764 Y-27.3306
G1 X23.6576 Y-27.3249
G1 X23.6265 Y-27.3171
G1 X23.6072 Y-27.3133
G1 X23.5852 Y-27.3099
G1 X23.5657 Y-27.3075
G1 X23.5461 Y-27.3061
G1 X23.5140 Y-27.3050
G1 X18.9421 Y-27.3050
G1 X18.9363 Y-27.2930
G1 X18.9271 Y-27.2757
G1 X18.8785 Y-27.1947
G1 X18.8619 Y-27.1704
G1 X18.8114 Y-27.1025
G1 X18.7924 Y-27.0800
G1 X18.7422 Y-27.0246
G1 X18.7287 Y-27.0104
G1 X18.7144 Y-26.9968
G1 X18.6590 Y-26.9466
G1 X18.6365 Y-26.9277
G1 X18.5607 Y-26.8714
G1 X18.5360 Y-26.8554
G1 X18.4634 Y-26.8120
G1 X18.4372 Y-26.7984
G1 X18.3607 Y-26.7624
G1 X18.3426 Y-26.7548
G1 X18.3071 Y-26.7420
G1 X18.3071 Y-22.8600
G1 X18.3060 Y-22.8279
G1 X18.3034 Y-22.7986
G1 X18.3003 Y-22.7765
G1 X18.2969 Y-22.7572
G1 X18.2926 Y-22.7380
G1 X18.2844 Y-22.7070
G1 X18.2740 Y-22.6766
G1 X18.2669 Y-22.6583
G1 X18.2590 Y-22.6404
G1 X18.2448 Y-22.6115
G1 X18.2352 Y-22.5945
G1 X18.2182 Y-22.5672
G1 X18.2069 Y-22.5511
G1 X18.1936 Y-22.5333
G1 X18.1811 Y-22.5181
G1 X18.1595 Y-22.4943
G1 X18.1457 Y-22.4805
G1 X18.1292 Y-22.4654
G1 X18.1144 Y-22.4526
G1 X18.0989 Y-22.4405
G1 X18.0728 Y-22.4218
G1 X18.0562 Y-22.4113
G1 X18.0371 Y-22.3999
G1 X18.0197 Y-22.3907
G1 X17.9907 Y-22.3769
G1 X17.9726 Y-22.3694
G1 X17.9516 Y-22.3618
G1 X17.9330 Y-22.3556
G1 X17.9020 Y-22.3474
G1 X17.8828 Y-22.3431
G1 X17.8635 Y-22.3397
G1 X17.8317 Y-22.3355
G1 X17.7996 Y-22.3334
G1 X17.7800 Y-22.3329
G1 X2.7940 Y-22.3329
G1 X2.7619 Y-22.3340
G1 X2.7326 Y-22.3366
G1 X2.7008 Y-22.3413
G1 X2.6720 Y-22.3474
G1 X2.6410 Y-22.3556
G1 X2.6106 Y-22.3660
G1 X2.5833 Y-22.3769
G1 X2.5543 Y-22.3907
G1 X2.5285 Y-22.4048
G1 X2.5012 Y-22.4218
G1 X2.4851 Y-22.4331
G1 X2.4673 Y-22.4464
G1 X2.4448 Y-22.4654
G1 X2.4213 Y-22.4873
G1 X2.4078 Y-22.5015
G1 X2.3929 Y-22.5181
G1 X2.3804 Y-22.5333
G1 X2.3671 Y-22.5511
G1 X2.3504 Y-22.5754
G1 X2.3388 Y-22.5945
G1 X2.3292 Y-22.6115
G1 X2.3150 Y-22.6404
G1 X2.3034 Y-22.6674
G1 X2.2958 Y-22.6884
G1 X2.2896 Y-22.7070
G1 X2.2844 Y-22.7259
G1 X2.2791 Y-22.7476
G1 X2.2737 Y-22.7765
G1 X2.2695 Y-22.8083
G1 X2.2680 Y-22.8279
G1 X2.2671 Y-22.8502
G1 X2.2669 Y-30.2069
G0 Z2.0000
G0 X2.0320 Y-36.8030
F1000
G1 Z0.0000 F1000
F300
G1 X2.5669 Y-36.8030
G1 X2.5670 Y-46.9925
G1 X2.5680 Y-47.0123
G1 X2.5713 Y-47.0343
G1 X2.5767 Y-47.0559
G1 X2.5825 Y-47.0723
G1 X2.5862 Y-47.0814
G1 X2.5926 Y-47.0949
G1 X2.5962 Y-47.1013
G1 X2.6052 Y-47.1161
G1 X2.6185 Y-47.1340
G1 X2.6334 Y-47.1506
G1 X2.6500 Y-47.1655
G1 X2.6679 Y-47.1788
G1 X2.6827 Y-47.1878
G1 X2.6913 Y-47.1925
G1 X2.7049 Y-47.1988
G1 X2.7117 Y-47.2015
G1 X2.7281 Y-47.2073
G1 X2.7497 Y-47.2127
G1 X2.7717 Y-47.2160
G1 X2.7940 Y-47.2171
G1 X53.3400 Y-47.2171
G1 X53.3623 Y-47.2160
G1 X53.3795 Y-47.2135
G1 X53.3891 Y-47.2116
G1 X53.4036 Y-47.2080
G1 X53.4106 Y-47.2057
G1 X53.4269 Y-47.1998
G1 X53.4470 Y-47.1903
G1 X53.4661 Y-47.1788
G1 X53.4840 Y-47.1655
G1 X53.5006 Y-47.1506
G1 X53.5155 Y-47.1340
G1 X53.5288 Y-47.1161
G1 X53.5378 Y-47.1013
G1 X53.5414 Y-47.0949
G1 X53.5478 Y-47.0814
G1 X53.5515 Y-47.0723
G1 X53.5573 Y-47.0559
G1 X53.5627 Y-47.0343
G1 X53.5660 Y-47.0123
G1 X53.5671 Y-46.9900
G1 X53.5671 Y-40.0738
G1 X53.5926 Y-40.0671
G1 X53.6653 Y-40.0412
G1 X53.6721 Y-40.0384
G1 X53.7463 Y-40.0032
G1 X53.8168 Y-39.9611
G1 X53.8229 Y-39.9569
G1 X53.8868 Y-39.9093
G1 X53.9460 Y-39.8559
G1 X53.9529 Y-39.8490
G1 X54.0079 Y-39.7879
G1 X54.0567 Y-39.7219
G1 X54.1002 Y-39.6493
G1 X54.1364 Y-39.5729
G1 X54.1633 Y-39.4979
G1 X54.1662 Y-39.4885
G1 X54.1844 Y-39.4160
G1 X54.1863 Y-39.4063
G1 X54.1978 Y-39.3275
G1 X54.2019 Y-39.2479
G1 X54.2020 Y-39.2405
G1 X54.1978 Y-39.1585
G1 X54.1854 Y-39.0748
G1 X54.1649 Y-38.9928
G1 X54.1364 Y-38.9131
G1 X54.1002 Y-38.8367
G1 X54.0567 Y-38.7641
G1 X54.0063 Y-38.6962
G1 X53.9495 Y-38.6335
G1 X53.8868 Y-38.5767
G1 X53.8189 Y-38.5263
G1 X53.7463 Y-38.4828
G1 X53.6699 Y-38.4466
G1 X53.5902 Y-38.4181
G1 X53.5082 Y-38.3976
G1 X53.4245 Y-38.3852
G1 X53.3400 Y-38.3810
G1 X53.2555 Y-38.3852
G1 X53.1718 Y-38.3976
G1 X53.0898 Y-38.4181
G1 X53.0101 Y-38.4466
G1 X52.9337 Y-38.4828
G1 X52.8611 Y-38.5263
G1 X52.7932 Y-38.5767
G1 X52.7305 Y-38.6335
G1 X52.6737 Y-38.6962
G1 X52.6233 Y-38.7641
G1 X52.5798 Y-38.8367
G1 X52.5436 Y-38.9131
G1 X52.5151 Y-38.9928
G1 X52.4946 Y-39.0748
G1 X52.4822 Y-39.1585
G1 X52.4780 Y-39.2405
G1 X52.4781 Y-39.2479
G1 X52.4822 Y-39.3275
G1 X52.4937 Y-39.4063
G1 X52.4956 Y-39.4160
G1 X52.5138 Y-39.4885
G1 X52.5167 Y-39.4979
G1 X52.5436 Y-39.5729
G1 X52.5798 Y-39.6493
G1 X52.6233 Y-39.7219
G1 X52.6721 Y-39.7879
G1 X52.7271 Y-39.8490
G1 X52.7340 Y-39.8559
G1 X52.7932 Y-39.9093
G1 X52.8571 Y-39.9569
G1 X52.8632 Y-39.9611
G1 X52.9337 Y-40.0032
G1 X53.0079 Y-40.0384
G1 X53.0147 Y-40.0412
G1 X53.0874 Y-40.0671
G1 X53.1129 Y-40.0738
G1 X53.1129 Y-46.7629
G1 X3.0211 Y-46.7629
G1 X3.0211 Y-36.8030
G1 X3.5560 Y-36.8030
G1 X3.5634 Y-36.8027
G1 X3.5707 Y-36.8019
G1 X3.5803 Y-36.8000
G1 X3.5874 Y-36.7980
G1 X3.5965 Y-36.7944
G1 X3.6053 Y-36.7900
G1 X3.6116 Y-36.7861
G1 X3.6194 Y-36.7803
G1 X3.6250 Y-36.7754
G1 X3.6317 Y-36.7683
G1 X3.6378 Y-36.7606
G1 X3.6418 Y-36.7544
G1 X3.6464 Y-36.7458
G1 X3.6493 Y-36.7390
G1 X3.6524 Y-36.7297
G1 X3.6541 Y-36.7225
G1 X3.6555 Y-36.7128
G1 X3.6560 Y-36.7030
G1 X3.6560 Y-35.1790
G1 X3.6552 Y-35.1668
G1 X3.6536 Y-35.1571
G1 X3.6517 Y-35.1500
G1 X3.6493 Y-35.1430
G1 X3.6464 Y-35.1362
G1 X3.6430 Y-35.1297
G1 X3.6391 Y-35.1234
G1 X3.6348 Y-35.1175
G1 X3.6284 Y-35.1100
G1 X3.6232 Y-35.1049
G1 X3.6175 Y-35.1002
G1 X3.6116 Y-35.0959
G1 X3.6053 Y-35.0920
G1 X3.5988 Y-35.0886
G1 X3.5897 Y-35.0848
G1 X3.5827 Y-35.0826
G1 X3.5755 Y-35.0809
G1 X3.5682 Y-35.0798
G1 X3.5560 Y-35.0790
G1 X3.0211 Y-35.0790
G1 X3.0211 Y-33.8821
G1 X7.6200 Y-33.8821
G1 X7.6398 Y-33.8812
G1 X7.6471 Y-33.8804
G1 X7.6643 Y-33.8777
G1 X7.6859 Y-33.8723
G1 X7.7046 Y-33.8657
G1 X7.7114 Y-33.8628
G1 X7.7270 Y-33.8553
G1 X7.7420 Y-33.8464
G1 X7.7482 Y-33.8424
G1 X7.7640 Y-33.8305
G1 X7.7806 Y-33.8156
G1 X8.0346 Y-33.5616
G1 X8.0463 Y-33.5488
G1 X8.0511 Y-33.5431
G1 X8.0628 Y-33.5271
G1 X8.0731 Y-33.5102
G1 X8.0765 Y-33.5037
G1 X8.0838 Y-33.4879
G1 X8.0897 Y-33.4716
G1 X8.0920 Y-33.4646
G1 X8.0967 Y-33.4453
G1 X8.1000 Y-33.4233
G1 X8.1011 Y-33.4010
G1 X8.1011 Y-32.1040
G1 X8.6360 Y-32.1040
G1 X8.6482 Y-32.1032
G1 X8.6555 Y-32.1021
G1 X8.6627 Y-32.1004
G1 X8.6697 Y-32.0982
G1 X8.6765 Y-32.0954
G1 X8.6831 Y-32.0922
G1 X8.6895 Y-32.0885
G1 X8.6956 Y-32.0843
G1 X8.7013 Y-32.0797
G1 X8.7067 Y-32.0747
G1 X8.7117 Y-32.0693
G1 X8.7163 Y-32.0636
G1 X8.7205 Y-32.0575
G1 X8.7242 Y-32.0511
G1 X8.7274 Y-32.0445
G1 X8.7302 Y-32.0377
G1 X8.7324 Y-32.0307
G1 X8.7341 Y-32.0235
G1 X8.7352 Y-32.0162
G1 X8.7360 Y-32.0040
G1 X8.7360 Y-30.4775
G1 X8.7352 Y-30.4678
G1 X8.7341 Y-30.4605
G1 X8.7317 Y-30.4510
G1 X8.7284 Y-30.4417
G1 X8.7242 Y-30.4329
G1 X8.7191 Y-30.4244
G1 X8.7133 Y-30.4166
G1 X8.7084 Y-30.4110
G1 X8.7013 Y-30.4043
G1 X8.6936 Y-30.3982
G1 X8.6853 Y-30.3930
G1 X8.6765 Y-30.3886
G1 X8.6674 Y-30.3850
G1 X8.6579 Y-30.3824
G1 X8.6482 Y-30.3808
G1 X8.6385 Y-30.3800
G1 X7.1095 Y-30.3800
G1 X7.1022 Y-30.3805
G1 X7.0949 Y-30.3815
G1 X7.0877 Y-30.3830
G1 X7.0806 Y-30.3850
G1 X7.0737 Y-30.3876
G1 X7.0670 Y-30.3907
G1 X7.0606 Y-30.3942
G1 X7.0544 Y-30.3982
G1 X7.0486 Y-30.4027
G1 X7.0430 Y-30.4076
G1 X7.0379 Y-30.4128
G1 X7.0332 Y-30.4185
G1 X7.0289 Y-30.4244
G1 X7.0250 Y-30.4307
G1 X7.0216 Y-30.4372
G1 X7.0187 Y-30.4440
G1 X7.0156 Y-30.4533
G1 X7.0139 Y-30.4605
G1 X7.0125 Y-30.4702
G1 X7.0120 Y-30.4800
G1 X7.0120 Y-32.0040
G1 X7.0125 Y-32.0138
G1 X7.0135 Y-32.0211
G1 X7.0156 Y-32.0307
G1 X7.0187 Y-32.0400
G1 X7.0216 Y-32.0468
G1 X7.0250 Y-32.0533
G1 X7.0317 Y-32.0636
G1 X7.0396 Y-32.0730
G1 X7.0448 Y-32.0781
G1 X7.0505 Y-32.0828
G1 X7.0564 Y-32.0871
G1 X7.0627 Y-32.0910
G1 X7.0737 Y-32.0964
G1 X7.0806 Y-32.0990
G1 X7.0877 Y-32.1010
G1 X7.0949 Y-32.1025
G1 X7.1022 Y-32.1035
G1 X7.1120 Y-32.1040
G1 X7.6469 Y-32.1040
G1 X7.6469 Y-33.3069
G1 X7.5259 Y-33.4279
G1 X2.7915 Y-33.4280
G1 X2.7717 Y-33.4290
G1 X2.7497 Y-33.4323
G1 X2.7281 Y-33.4377
G1 X2.7071 Y-33.4452
G1 X2.6870 Y-33.4547
G1 X2.6679 Y-33.4662
G1 X2.6500 Y-33.4795
G1 X2.6352 Y-33.4927
G1 X2.6185 Y-33.5110
G1 X2.6052 Y-33.5289
G1 X2.5937 Y-33.5480
G1 X2.5852 Y-33.5659
G1 X2.5767 Y-33.5891
G1 X2.5718 Y-33.6083
G1 X2.5683 Y-33.6303
G1 X2.5671 Y-33.6501
G1 X2.5669 Y-35.0790
G1 X2.0320 Y-35.0790
G1 X2.0198 Y-35.0798
G1 X2.0125 Y-35.0809
G1 X2.0053 Y-35.0826
G1 X1.9983 Y-35.0848
G1 X1.9892 Y-35.0886
G1 X1.9827 Y-35.0920
G1 X1.9764 Y-35.0959
G1 X1.9705 Y-35.1002
G1 X1.9630 Y-35.1066
G1 X1.9563 Y-35.1137
G1 X1.9517 Y-35.1194
G1 X1.9475 Y-35.1255
G1 X1.9438 Y-35.1319
G1 X1.9406 Y-35.1385
G1 X1.9378 Y-35.1453
G1 X1.9350 Y-35.1547
G1 X1.9335 Y-35.1619
G1 X1.9325 Y-35.1692
G1 X1.9320 Y-35.1790
G1 X1.9321 Y-36.7079
G1 X1.9328 Y-36.7152
G1 X1.9344 Y-36.7249
G1 X1.9370 Y-36.7344
G1 X1.9406 Y-36.7435
G1 X1.9450 Y-36.7523
G1 X1.9502 Y-36.7606
G1 X1.9563 Y-36.7683
G1 X1.9630 Y-36.7754
G1 X1.9705 Y-36.7818
G1 X1.9785 Y-36.7875
G1 X1.9870 Y-36.7923
G1 X1.9960 Y-36.7963
G1 X2.0030 Y-36.7987
G1 X2.0125 Y-36.8011
G1 X2.0222 Y-36.8025
G1 X2.0320 Y-36.8030
G0 Z2.0000
G0 X2.0320 Y-36.9530
F1000
G1 Z0.0000 F1000
F300
G1 X2.4169 Y-36.9530
G1 X2.4170 Y-46.9961
G1 X2.4188 Y-47.0270
G1 X2.4203 Y-47.0391
G1 X2.4242 Y-47.0636
G1 X2.4315 Y-47.0936
G1 X2.4350 Y-47.1053
G1 X2.4412 Y-47.1228
G1 X2.4456 Y-47.1343
G1 X2.4506 Y-47.1455
G1 X2.4586 Y-47.1623
G1 X2.4644 Y-47.1731
G1 X2.4805 Y-47.1995
G1 X2.4950 Y-47.2195
G1 X2.5025 Y-47.2292
G1 X2.5105 Y-47.2385
G1 X2.5274 Y-47.2566
G1 X2.5501 Y-47.2775
G1 X2.5596 Y-47.2853
G1 X2.5795 Y-47.3000
G1 X2.5897 Y-47.3069
G1 X2.6056 Y-47.3165
G1 X2.6163 Y-47.3225
G1 X2.6272 Y-47.3281
G1 X2.6441 Y-47.3359
G1 X2.6554 Y-47.3406
G1 X2.6845 Y-47.3508
G1 X2.6964 Y-47.3541
G1 X2.7204 Y-47.3598
G1 X2.7325 Y-47.3619
G1 X2.7570 Y-47.3652
G1 X2.7817 Y-47.3668
G1 X2.7940 Y-47.3671
G1 X53.3400 Y-47.3671
G1 X53.3523 Y-47.3668
G1 X53.3770 Y-47.3652
G1 X53.4075 Y-47.3609
G1 X53.4196 Y-47.3585
G1 X53.4376 Y-47.3541
G1 X53.4495 Y-47.3508
G1 X53.4611 Y-47.3470
G1 X53.4786 Y-47.3406
G1 X53.4899 Y-47.3359
G1 X53.5123 Y-47.3254
G1 X53.5231 Y-47.3196
G1 X53.5495 Y-47.3035
G1 X53.5695 Y-47.2890
G1 X53.5792 Y-47.2815
G1 X53.5977 Y-47.2651
G1 X53.6066 Y-47.2566
G1 X53.6275 Y-47.2339
G1 X53.6353 Y-47.2244
G1 X53.6500 Y-47.2045
G1 X53.6569 Y-47.1943
G1 X53.6665 Y-47.1784
G1 X53.6725 Y-47.1677
G1 X53.6781 Y-47.1568
G1 X53.6859 Y-47.1399
G1 X53.6906 Y-47.1286
G1 X53.7008 Y-47.0995
G1 X53.7071 Y-47.0755
G1 X53.7098 Y-47.0636
G1 X53.7119 Y-47.0515
G1 X53.7152 Y-47.0270
G1 X53.7162 Y-47.0147
G1 X53.7171 Y-46.9900
G1 X53.7171 Y-40.1819
G1 X53.7273 Y-40.1780
G1 X53.7385 Y-40.1730
G1 X53.8061 Y-40.1410
G1 X53.8171 Y-40.1355
G1 X53.8277 Y-40.1295
G1 X53.8919 Y-40.0910
G1 X53.9022 Y-40.0844
G1 X53.9123 Y-40.0774
G1 X53.9723 Y-40.0328
G1 X53.9820 Y-40.0253
G1 X53.9913 Y-40.0173
G1 X54.0467 Y-39.9671
G1 X54.0556 Y-39.9586
G1 X54.0641 Y-39.9497
G1 X54.1143 Y-39.8943
G1 X54.1223 Y-39.8850
G1 X54.1298 Y-39.8753
G1 X54.1744 Y-39.8153
G1 X54.1814 Y-39.8052
G1 X54.1880 Y-39.7949
G1 X54.2265 Y-39.7307
G1 X54.2325 Y-39.7201
G1 X54.2380 Y-39.7091
G1 X54.2700 Y-39.6415
G1 X54.2750 Y-39.6303
G1 X54.2794 Y-39.6188
G1 X54.3046 Y-39.5484
G1 X54.3084 Y-39.5368
G1 X54.3117 Y-39.5249
G1 X54.3299 Y-39.4524
G1 X54.3326 Y-39.4404
G1 X54.3347 Y-39.4283
G1 X54.3456 Y-39.3544
G1 X54.3471 Y-39.3422
G1 X54.3480 Y-39.3300
G1 X54.3517 Y-39.2553
G1 X54.3520 Y-39.2430
G1 X54.3517 Y-39.2307
G1 X54.3480 Y-39.1560
G1 X54.3471 Y-39.1438
G1 X54.3456 Y-39.1316
G1 X54.3347 Y-39.0577
G1 X54.3326 Y-39.0456
G1 X54.3299 Y-39.0336
G1 X54.3117 Y-38.9611
G1 X54.3084 Y-38.9492
G1 X54.3046 Y-38.9376
G1 X54.2794 Y-38.8672
G1 X54.2750 Y-38.8557
G1 X54.2700 Y-38.8445
G1 X54.2380 Y-38.7769
G1 X54.2325 Y-38.7659
G1 X54.2265 Y-38.7553
G1 X54.1880 Y-38.6911
G1 X54.1814 Y-38.6808
G1 X54.1744 Y-38.6707
G1 X54.1298 Y-38.6107
G1 X54.1223 Y-38.6010
G1 X54.1143 Y-38.5917
G1 X54.0641 Y-38.5363
G1 X54.0556 Y-38.5274
G1 X54.0467 Y-38.5189
G1 X53.9913 Y-38.4687
G1 X53.9820 Y-38.4607
G1 X53.9723 Y-38.4532
G1 X53.9123 Y-38.4086
G1 X53.9022 Y-38.4016
G1 X53.8919 Y-38.3950
G1 X53.8277 Y-38.3565
G1 X53.8171 Y-38.3505
G1 X53.8061 Y-38.3450
G1 X53.7385 Y-38.3130
G1 X53.7273 Y-38.3080
G1 X53.7158 Y-38.3036
G1 X53.6454 Y-38.2784
G1 X53.6338 Y-38.2746
G1 X53.6219 Y-38.2713
G1 X53.5494 Y-38.2531
G1 X53.5374 Y-38.2504
G1 X53.5253 Y-38.2483
G1 X53.4514 Y-38.2374
G1 X53.4392 Y-38.2359
G1 X53.4270 Y-38.2350
G1 X53.3523 Y-38.2313
G1 X53.3400 Y-38.2310
G1 X53.3277 Y-38.2313
G1 X53.2530 Y-38.2350
G1 X53.2408 Y-38.2359
G1 X53.2286 Y-38.2374
G1 X53.1547 Y-38.2483
G1 X53.1426 Y-38.2504
G1 X53.1306 Y-38.2531
G1 X53.0581 Y-38.2713
G1 X53.0462 Y-38.2746
G1 X53.0346 Y-38.2784
G1 X52.9642 Y-38.3036
G1 X52.9527 Y-38.3080
G1 X52.9415 Y-38.3130
G1 X52.8739 Y-38.3450
G1 X52.8629 Y-38.3505
G1 X52.8523 Y-38.3565
G1 X52.7881 Y-38.3950
G1 X52.7778 Y-38.4016
G1 X52.7677 Y-38.4086
G1 X52.7077 Y-38.4532
G1 X52.6980 Y-38.4607
G1 X52.6887 Y-38.4687
G1 X52.6333 Y-38.5189
G1 X52.6244 Y-38.5274
G1 X52.6159 Y-38.5363
G1 X52.5657 Y-38.5917
G1 X52.5577 Y-38.6010
G1 X52.5502 Y-38.6107
G1 X52.5056 Y-38.6707
G1 X52.4986 Y-38.6808
G1 X52.4920 Y-38.6911
G1 X52.4535 Y-38.7553
G1 X52.4475 Y-38.7659
G1 X52.4420 Y-38.7769
G1 X52.4100 Y-38.8445
G1 X52.4050 Y-38.8557
G1 X52.4006 Y-38.8672
G1 X52.3754 Y-38.9376
G1 X52.3716 Y-38.9492
G1 X52.3683 Y-38.9611
G1 X52.3501 Y-39.0336
G1 X52.3474 Y-39.0456
G1 X52.3453 Y-39.0577
G1 X52.3344 Y-39.1316
G1 X52.3329 Y-39.1438
G1 X52.3320 Y-39.1560
G1 X52.3283 Y-39.2307
G1 X52.3280 Y-39.2430
G1 X52.3283 Y-39.2553
G1 X52.3320 Y-39.3300
G1 X52.3329 Y-39.3422
G1 X52.3344 Y-39.3544
G1 X52.3453 Y-39.4283
G1 X52.3474 Y-39.4404
G1 X52.3501 Y-39.4524
G1 X52.3683 Y-39.5249
G1 X52.3716 Y-39.5368
G1 X52.3754 Y-39.5484
G1 X52.4006 Y-39.6188
G1 X52.4050 Y-39.6303
G1 X52.4100 Y-39.6415
G1 X52.4420 Y-39.7091
G1 X52.4475 Y-39.7201
G1 X52.4535 Y-39.7307
G1 X52.4920 Y-39.7949
G1 X52.4986 Y-39.8052
G1 X52.5056 Y-39.8153
G1 X52.5502 Y-39.8753
G1 X52.5577 Y-39.8850
G1 X52.5657 Y-39.8943
G1 X52.6159 Y-39.9497
G1 X52.6244 Y-39.9586
G1 X52.6333 Y-39.9671
G1 X52.6887 Y-40.0173
G1 X52.6980 Y-40.0253
G1 X52.7077 Y-40.0328
G1 X52.7677 Y-40.0774
G1 X52.7778 Y-40.0844
G1 X52.7881 Y-40.0910
G1 X52.8523 Y-40.1295
G1 X52.8629 Y-40.1355
G1 X52.8739 Y-40.1410
G1 X52.9415 Y-40.1730
G1 X52.9527 Y-40.1780
G1 X52.9629 Y-40.1819
G1 X52.9629 Y-46.6129
G1 X3.1711 Y-46.6129
G1 X3.1711 Y-36.9530
G1 X3.5621 Y-36.9529
G1 X3.5744 Y-36.9523
G1 X3.5866 Y-36.9511
G1 X3.6048 Y-36.9482
G1 X3.6227 Y-36.9439
G1 X3.6344 Y-36.9404
G1 X3.6460 Y-36.9362
G1 X3.6629 Y-36.9290
G1 X3.6738 Y-36.9235
G1 X3.6845 Y-36.9174
G1 X3.7000 Y-36.9074
G1 X3.7146 Y-36.8963
G1 X3.7284 Y-36.8841
G1 X3.7412 Y-36.8709
G1 X3.7531 Y-36.8568
G1 X3.7639 Y-36.8419
G1 X3.7735 Y-36.8262
G1 X3.7820 Y-36.8099
G1 X3.7892 Y-36.7930
G1 X3.7952 Y-36.7756
G1 X3.7999 Y-36.7578
G1 X3.8033 Y-36.7397
G1 X3.8053 Y-36.7214
G1 X3.8060 Y-36.7030
G1 X3.8060 Y-35.1790
G1 X3.8057 Y-35.1667
G1 X3.8041 Y-35.1484
G1 X3.8012 Y-35.1302
G1 X3.7985 Y-35.1183
G1 X3.7952 Y-35.1064
G1 X3.7892 Y-35.0890
G1 X3.7820 Y-35.0721
G1 X3.7765 Y-35.0612
G1 X3.7672 Y-35.0453
G1 X3.7568 Y-35.0301
G1 X3.7493 Y-35.0204
G1 X3.7371 Y-35.0066
G1 X3.7239 Y-34.9938
G1 X3.7146 Y-34.9857
G1 X3.7000 Y-34.9746
G1 X3.6845 Y-34.9646
G1 X3.6684 Y-34.9557
G1 X3.6573 Y-34.9504
G1 X3.6460 Y-34.9458
G1 X3.6286 Y-34.9398
G1 X3.6108 Y-34.9351
G1 X3.5987 Y-34.9327
G1 X3.5805 Y-34.9302
G1 X3.5621 Y-34.9291
G1 X3.1711 Y-34.9290
G1 X3.1711 Y-34.0321
G1 X7.6261 Y-34.0320
G1 X7.6570 Y-34.0302
G1 X7.6815 Y-34.0269
G1 X7.6996 Y-34.0235
G1 X7.7295 Y-34.0158
G1 X7.7586 Y-34.0056
G1 X7.7699 Y-34.0009
G1 X7.7868 Y-33.9931
G1 X7.8031 Y-33.9846
G1 X7.8295 Y-33.9685
G1 X7.8395 Y-33.9615
G1 X7.8592 Y-33.9465
G1 X7.8822 Y-33.9259
G1 X8.1406 Y-33.6676
G1 X8.1615 Y-33.6449
G1 X8.1730 Y-33.6305
G1 X8.1875 Y-33.6105
G1 X8.2005 Y-33.5894
G1 X8.2094 Y-33.5733
G1 X8.2199 Y-33.5509
G1 X8.2268 Y-33.5338
G1 X8.2348 Y-33.5105
G1 X8.2411 Y-33.4865
G1 X8.2449 Y-33.4685
G1 X8.2486 Y-33.4441
G1 X8.2502 Y-33.4257
G1 X8.2511 Y-33.4010
G1 X8.2511 Y-32.2540
G1 X8.6421 Y-32.2539
G1 X8.6605 Y-32.2528
G1 X8.6787 Y-32.2503
G1 X8.6967 Y-32.2465
G1 X8.7086 Y-32.2432
G1 X8.7202 Y-32.2394
G1 X8.7373 Y-32.2326
G1 X8.7538 Y-32.2245
G1 X8.7697 Y-32.2152
G1 X8.7800 Y-32.2084
G1 X8.7946 Y-32.1973
G1 X8.8039 Y-32.1892
G1 X8.8171 Y-32.1764
G1 X8.8253 Y-32.1673
G1 X8.8368 Y-32.1529
G1 X8.8472 Y-32.1377
G1 X8.8535 Y-32.1272
G1 X8.8593 Y-32.1164
G1 X8.8670 Y-32.0997
G1 X8.8734 Y-32.0824
G1 X8.8769 Y-32.0707
G1 X8.8812 Y-32.0528
G1 X8.8833 Y-32.0407
G1 X8.8853 Y-32.0224
G1 X8.8860 Y-32.0040
G1 X8.8859 Y-30.4739
G1 X8.8853 Y-30.4616
G1 X8.8841 Y-30.4494
G1 X8.8823 Y-30.4373
G1 X8.8799 Y-30.4252
G1 X8.8752 Y-30.4074
G1 X8.8714 Y-30.3958
G1 X8.8670 Y-30.3843
G1 X8.8620 Y-30.3731
G1 X8.8565 Y-30.3622
G1 X8.8504 Y-30.3515
G1 X8.8439 Y-30.3411
G1 X8.8368 Y-30.3311
G1 X8.8293 Y-30.3214
G1 X8.8212 Y-30.3121
G1 X8.8128 Y-30.3032
G1 X8.8039 Y-30.2948
G1 X8.7946 Y-30.2867
G1 X8.7800 Y-30.2756
G1 X8.7697 Y-30.2688
G1 X8.7592 Y-30.2625
G1 X8.7484 Y-30.2567
G1 X8.7373 Y-30.2514
G1 X8.7260 Y-30.2468
G1 X8.7144 Y-30.2426
G1 X8.7027 Y-30.2391
G1 X8.6908 Y-30.2361
G1 X8.6787 Y-30.2337
G1 X8.6666 Y-30.2319
G1 X8.6483 Y-30.2303
G1 X8.6360 Y-30.2300
G1 X7.1120 Y-30.2300
G1 X7.0997 Y-30.2303
G1 X7.0814 Y-30.2319
G1 X7.0632 Y-30.2348
G1 X7.0453 Y-30.2391
G1 X7.0278 Y-30.2446
G1 X7.0107 Y-30.2514
G1 X6.9942 Y-30.2595
G1 X6.9783 Y-30.2688
G1 X6.9680 Y-30.2756
G1 X6.9534 Y-30.2867
G1 X6.9441 Y-30.2948
G1 X6.9309 Y-30.3076
G1 X6.9187 Y-30.3214
G1 X6.9112 Y-30.3311
G1 X6.9008 Y-30.3463
G1 X6.8915 Y-30.3622
G1 X6.8834 Y-30.3787
G1 X6.8788 Y-30.3900
G1 X6.8746 Y-30.4016
G1 X6.8695 Y-30.4193
G1 X6.8668 Y-30.4312
G1 X6.8647 Y-30.4433
G1 X6.8632 Y-30.4555
G1 X6.8623 Y-30.4677
G1 X6.8620 Y-30.4800
G1 X6.8620 Y-32.0040
G1 X6.8623 Y-32.0163
G1 X6.8632 Y-32.0285
G1 X6.8647 Y-32.0407
G1 X6.8668 Y-32.0528
G1 X6.8711 Y-32.0707
G1 X6.8766 Y-32.0882
G1 X6.8834 Y-32.1053
G1 X6.8887 Y-32.1164
G1 X6.8976 Y-32.1325
G1 X6.9076 Y-32.1480
G1 X6.9187 Y-32.1626
G1 X6.9268 Y-32.1719
G1 X6.9352 Y-32.1808
G1 X6.9487 Y-32.1933
G1 X6.9631 Y-32.2048
G1 X6.9731 Y-32.2119
G1 X6.9888 Y-32.2215
G1 X7.0051 Y-32.2300
G1 X7.0220 Y-32.2372
G1 X7.0336 Y-32.2414
G1 X7.0513 Y-32.2465
G1 X7.0693 Y-32.2503
G1 X7.0875 Y-32.2528
G1 X7.1059 Y-32.2539
G1 X7.4969 Y-32.2540
G1 X7.4969 Y-33.2448
G1 X7.4638 Y-33.2779
G1 X2.7879 Y-33.2780
G1 X2.7570 Y-33.2798
G1 X2.7449 Y-33.2813
G1 X2.7204 Y-33.2852
G1 X2.7085 Y-33.2879
G1 X2.6845 Y-33.2942
G1 X2.6612 Y-33.3022
G1 X2.6497 Y-33.3066
G1 X2.6385 Y-33.3116
G1 X2.6163 Y-33.3225
G1 X2.6056 Y-33.3285
G1 X2.5845 Y-33.3415
G1 X2.5645 Y-33.3560
G1 X2.5548 Y-33.3635
G1 X2.5455 Y-33.3715
G1 X2.5274 Y-33.3884
G1 X2.5105 Y-33.4065
G1 X2.5025 Y-33.4158
G1 X2.4840 Y-33.4405
G1 X2.4771 Y-33.4507
G1 X2.4644 Y-33.4719
G1 X2.4586 Y-33.4827
G1 X2.4506 Y-33.4995
G1 X2.4456 Y-33.5107
G1 X2.4412 Y-33.5222
G1 X2.4350 Y-33.5397
G1 X2.4299 Y-33.5574
G1 X2.4255 Y-33.5754
G1 X2.4231 Y-33.5875
G1 X2.4194 Y-33.6119
G1 X2.4182 Y-33.6242
G1 X2.4169 Y-33.6550
G1 X2.4169 Y-34.9290
G1 X2.0259 Y-34.9291
G1 X2.0075 Y-34.9302
G1 X1.9893 Y-34.9327
G1 X1.9713 Y-34.9365
G1 X1.9536 Y-34.9416
G1 X1.9363 Y-34.9480
G1 X1.9196 Y-34.9557
G1 X1.9035 Y-34.9646
G1 X1.8880 Y-34.9746
G1 X1.8734 Y-34.9857
G1 X1.8641 Y-34.9938
G1 X1.8509 Y-35.0066
G1 X1.8387 Y-35.0204
G1 X1.8276 Y-35.0350
G1 X1.8208 Y-35.0453
G1 X1.8115 Y-35.0612
G1 X1.8034 Y-35.0777
G1 X1.7966 Y-35.0948
G1 X1.7911 Y-35.1123
G1 X1.7868 Y-35.1302
G1 X1.7847 Y-35.1423
G1 X1.7827 Y-35.1606
G1 X1.7820 Y-35.1790
G1 X1.7820 Y-36.7030
G1 X1.7827 Y-36.7214
G1 X1.7847 Y-36.7397
G1 X1.7881 Y-36.7578
G1 X1.7911 Y-36.7697
G1 X1.7946 Y-36.7814
G1 X1.7988 Y-36.7930
G1 X1.8034 Y-36.8043
G1 X1.8115 Y-36.8208
G1 X1.8176 Y-36.8315
G1 X1.8241 Y-36.8419
G1 X1.8312 Y-36.8519
G1 X1.8387 Y-36.8616
G1 X1.8468 Y-36.8709
G1 X1.8552 Y-36.8798
G1 X1.8687 Y-36.8923
G1 X1.8782 Y-36.9001
G1 X1.8880 Y-36.9074
G1 X1.8983 Y-36.9142
G1 X1.9088 Y-36.9205
G1 X1.9196 Y-36.9263
G1 X1.9307 Y-36.9316
G1 X1.9478 Y-36.9384
G1 X1.9653 Y-36.9439
G1 X1.9772 Y-36.9469
G1 X1.9893 Y-36.9493
G1 X2.0075 Y-36.9518
G1 X2.0197 Y-36.9527
G1 X2.0320 Y-36.9530
G0 Z2.0000
G0 X2.0320 Y-37.1030
F1000
G1 Z0.0000 F1000
F300
G1 X2.2669 Y-37.1030
G1 X2.2669 Y-46.9900
G1 X2.2674 Y-47.0096
G1 X2.2686 Y-47.0319
G1 X2.2706 Y-47.0514
G1 X2.2737 Y-47.0735
G1 X2.2771 Y-47.0928
G1 X2.2814 Y-47.1120
G1 X2.2869 Y-47.1336
G1 X2.2926 Y-47.1524
G1 X2.3000 Y-47.1734
G1 X2.3071 Y-47.1917
G1 X2.3150 Y-47.2096
G1 X2.3292 Y-47.2385
G1 X2.3388 Y-47.2555
G1 X2.3504 Y-47.2746
G1 X2.3613 Y-47.2909
G1 X2.3745 Y-47.3089
G1 X2.3866 Y-47.3244
G1 X2.3994 Y-47.3392
G1 X2.4145 Y-47.3557
G1 X2.4283 Y-47.3695
G1 X2.4448 Y-47.3846
G1 X2.4596 Y-47.3974
G1 X2.4751 Y-47.4095
G1 X2.5012 Y-47.4282
G1 X2.5178 Y-47.4387
G1 X2.5369 Y-47.4501
G1 X2.5543 Y-47.4593
G1 X2.5744 Y-47.4690
G1 X2.5923 Y-47.4769
G1 X2.6106 Y-47.4840
G1 X2.6316 Y-47.4914
G1 X2.6504 Y-47.4971
G1 X2.6720 Y-47.5026
G1 X2.6912 Y-47.5069
G1 X2.7105 Y-47.5103
G1 X2.7423 Y-47.5145
G1 X2.7744 Y-47.5166
G1 X2.7940 Y-47.5171
G1 X53.3400 Y-47.5171
G1 X53.3596 Y-47.5166
G1 X53.3917 Y-47.5145
G1 X53.4111 Y-47.5121
G1 X53.4332 Y-47.5087
G1 X53.4524 Y-47.5049
G1 X53.4741 Y-47.4996
G1 X53.4930 Y-47.4944
G1 X53.5116 Y-47.4882
G1 X53.5326 Y-47.4806
G1 X53.5507 Y-47.4731
G1 X53.5797 Y-47.4593
G1 X53.5971 Y-47.4501
G1 X53.6162 Y-47.4387
G1 X53.6328 Y-47.4282
G1 X53.6489 Y-47.4169
G1 X53.6744 Y-47.3974
G1 X53.6985 Y-47.3762
G1 X53.7127 Y-47.3627
G1 X53.7262 Y-47.3485
G1 X53.7411 Y-47.3319
G1 X53.7536 Y-47.3167
G1 X53.7669 Y-47.2989
G1 X53.7782 Y-47.2828
G1 X53.7887 Y-47.2662
G1 X53.8001 Y-47.2471
G1 X53.8093 Y-47.2297
G1 X53.8231 Y-47.2007
G1 X53.8306 Y-47.1826
G1 X53.8382 Y-47.1616
G1 X53.8444 Y-47.1430
G1 X53.8496 Y-47.1241
G1 X53.8569 Y-47.0928
G1 X53.8603 Y-47.0735
G1 X53.8645 Y-47.0417
G1 X53.8660 Y-47.0221
G1 X53.8671 Y-46.9900
G1 X53.8671 Y-40.2781
G1 X53.8878 Y-40.2678
G1 X53.9048 Y-40.2581
G1 X53.9690 Y-40.2197
G1 X53.9937 Y-40.2036
G1 X54.0617 Y-40.1533
G1 X54.0772 Y-40.1412
G1 X54.0920 Y-40.1284
G1 X54.1546 Y-40.0715
G1 X54.1752 Y-40.0504
G1 X54.2254 Y-39.9950
G1 X54.2382 Y-39.9802
G1 X54.2503 Y-39.9647
G1 X54.2949 Y-39.9046
G1 X54.3062 Y-39.8886
G1 X54.3167 Y-39.8720
G1 X54.3601 Y-39.7994
G1 X54.3736 Y-39.7732
G1 X54.4056 Y-39.7056
G1 X54.4135 Y-39.6877
G1 X54.4206 Y-39.6694
G1 X54.4458 Y-39.5990
G1 X54.4520 Y-39.5803
G1 X54.4572 Y-39.5614
G1 X54.4776 Y-39.4793
G1 X54.4830 Y-39.4504
G1 X54.4940 Y-39.3764
G1 X54.4964 Y-39.3569
G1 X54.4978 Y-39.3373
G1 X54.5015 Y-39.2626
G1 X54.5020 Y-39.2430
G1 X54.5015 Y-39.2234
G1 X54.4978 Y-39.1487
G1 X54.4953 Y-39.1193
G1 X54.4830 Y-39.0356
G1 X54.4797 Y-39.0163
G1 X54.4754 Y-38.9971
G1 X54.4572 Y-38.9246
G1 X54.4490 Y-38.8963
G1 X54.4172 Y-38.8074
G1 X54.4056 Y-38.7804
G1 X54.3736 Y-38.7128
G1 X54.3648 Y-38.6952
G1 X54.3551 Y-38.6782
G1 X54.3167 Y-38.6140
G1 X54.3062 Y-38.5974
G1 X54.2949 Y-38.5814
G1 X54.2503 Y-38.5213
G1 X54.2382 Y-38.5058
G1 X54.2254 Y-38.4910
G1 X54.1752 Y-38.4356
G1 X54.1546 Y-38.4145
G1 X54.0920 Y-38.3576
G1 X54.0772 Y-38.3448
G1 X54.0617 Y-38.3327
G1 X54.0016 Y-38.2881
G1 X53.9856 Y-38.2768
G1 X53.9690 Y-38.2663
G1 X53.9048 Y-38.2279
G1 X53.8878 Y-38.2182
G1 X53.8702 Y-38.2094
G1 X53.8026 Y-38.1774
G1 X53.7847 Y-38.1695
G1 X53.7664 Y-38.1624
G1 X53.6960 Y-38.1372
G1 X53.6773 Y-38.1310
G1 X53.6584 Y-38.1258
G1 X53.5859 Y-38.1076
G1 X53.5667 Y-38.1033
G1 X53.5474 Y-38.1000
G1 X53.4734 Y-38.0890
G1 X53.4539 Y-38.0866
G1 X53.4343 Y-38.0852
G1 X53.3498 Y-38.0811
G1 X53.3204 Y-38.0815
G1 X53.2457 Y-38.0852
G1 X53.2261 Y-38.0866
G1 X53.2066 Y-38.0890
G1 X53.1326 Y-38.1000
G1 X53.1133 Y-38.1033
G1 X53.0941 Y-38.1076
G1 X53.0216 Y-38.1258
G1 X53.0027 Y-38.1310
G1 X52.9840 Y-38.1372
G1 X52.9044 Y-38.1658
G1 X52.8774 Y-38.1774
G1 X52.8098 Y-38.2094
G1 X52.7922 Y-38.2182
G1 X52.7752 Y-38.2279
G1 X52.7110 Y-38.2663
G1 X52.6944 Y-38.2768
G1 X52.6784 Y-38.2881
G1 X52.6183 Y-38.3327
G1 X52.6028 Y-38.3448
G1 X52.5880 Y-38.3576
G1 X52.5326 Y-38.4078
G1 X52.5115 Y-38.4284
G1 X52.4546 Y-38.4910
G1 X52.4418 Y-38.5058
G1 X52.4297 Y-38.5213
G1 X52.3851 Y-38.5814
G1 X52.3685 Y-38.6057
G1 X52.3199 Y-38.6866
G1 X52.3064 Y-38.7128
G1 X52.2744 Y-38.7804
G1 X52.2665 Y-38.7983
G1 X52.2594 Y-38.8166
G1 X52.2342 Y-38.8870
G1 X52.2280 Y-38.9057
G1 X52.2228 Y-38.9246
G1 X52.2046 Y-38.9971
G1 X52.2003 Y-39.0163
G1 X52.1970 Y-39.0356
G1 X52.1860 Y-39.1096
G1 X52.1828 Y-39.1389
G1 X52.1785 Y-39.2234
G1 X52.1780 Y-39.2430
G1 X52.1785 Y-39.2626
G1 X52.1822 Y-39.3373
G1 X52.1836 Y-39.3569
G1 X52.1860 Y-39.3764
G1 X52.1970 Y-39.4504
G1 X52.2003 Y-39.4697
G1 X52.2046 Y-39.4889
G1 X52.2228 Y-39.5614
G1 X52.2280 Y-39.5803
G1 X52.2342 Y-39.5990
G1 X52.2594 Y-39.6694
G1 X52.2665 Y-39.6877
G1 X52.2744 Y-39.7056
G1 X52.3064 Y-39.7732
G1 X52.3199 Y-39.7994
G1 X52.3633 Y-39.8720
G1 X52.3738 Y-39.8886
G1 X52.3851 Y-39.9046
G1 X52.4297 Y-39.9647
G1 X52.4418 Y-39.9802
G1 X52.4546 Y-39.9950
G1 X52.5048 Y-40.0504
G1 X52.5254 Y-40.0715
G1 X52.5880 Y-40.1284
G1 X52.6028 Y-40.1412
G1 X52.6183 Y-40.1533
G1 X52.6863 Y-40.2036
G1 X52.7110 Y-40.2197
G1 X52.7752 Y-40.2581
G1 X52.7922 Y-40.2678
G1 X52.8129 Y-40.2781
G1 X52.8129 Y-46.4629
G1 X3.3211 Y-46.4629
G1 X3.3211 Y-37.1030
G1 X3.5658 Y-37.1029
G1 X3.5854 Y-37.1019
G1 X3.6147 Y-37.0987
G1 X3.6340 Y-37.0953
G1 X3.6532 Y-37.0910
G1 X3.6721 Y-37.0858
G1 X3.7000 Y-37.0762
G1 X3.7181 Y-37.0687
G1 X3.7358 Y-37.0603
G1 X3.7532 Y-37.0510
G1 X3.7700 Y-37.0409
G1 X3.7863 Y-37.0300
G1 X3.8098 Y-37.0122
G1 X3.8318 Y-36.9927
G1 X3.8457 Y-36.9788
G1 X3.8652 Y-36.9568
G1 X3.8830 Y-36.9333
G1 X3.8991 Y-36.9086
G1 X3.9088 Y-36.8916
G1 X3.9176 Y-36.8740
G1 X3.9292 Y-36.8470
G1 X3.9358 Y-36.8285
G1 X3.9440 Y-36.8002
G1 X3.9483 Y-36.7810
G1 X3.9530 Y-36.7520
G1 X3.9549 Y-36.7324
G1 X3.9560 Y-36.7030
G1 X3.9560 Y-35.1790
G1 X3.9549 Y-35.1496
G1 X3.9530 Y-35.1300
G1 X3.9501 Y-35.1106
G1 X3.9440 Y-35.0818
G1 X3.9388 Y-35.0629
G1 X3.9292 Y-35.0350
G1 X3.9217 Y-35.0169
G1 X3.9133 Y-34.9992
G1 X3.9040 Y-34.9818
G1 X3.8939 Y-34.9650
G1 X3.8773 Y-34.9407
G1 X3.8652 Y-34.9252
G1 X3.8524 Y-34.9104
G1 X3.8318 Y-34.8893
G1 X3.8173 Y-34.8761
G1 X3.8021 Y-34.8637
G1 X3.7863 Y-34.8520
G1 X3.7700 Y-34.8411
G1 X3.7446 Y-34.8262
G1 X3.7270 Y-34.8174
G1 X3.7091 Y-34.8094
G1 X3.6908 Y-34.8024
G1 X3.6627 Y-34.7935
G1 X3.6340 Y-34.7867
G1 X3.6147 Y-34.7833
G1 X3.5952 Y-34.7809
G1 X3.5756 Y-34.7795
G1 X3.5560 Y-34.7790
G1 X3.3211 Y-34.7790
G1 X3.3211 Y-34.1821
G1 X7.6298 Y-34.1819
G1 X7.6521 Y-34.1810
G1 X7.6717 Y-34.1795
G1 X7.6911 Y-34.1771
G1 X7.7132 Y-34.1737
G1 X7.7324 Y-34.1699
G1 X7.7541 Y-34.1646
G1 X7.7824 Y-34.1564
G1 X7.8034 Y-34.1490
G1 X7.8217 Y-34.1419
G1 X7.8396 Y-34.1340
G1 X7.8597 Y-34.1243
G1 X7.8855 Y-34.1102
G1 X7.9046 Y-34.0986
G1 X7.9209 Y-34.0877
G1 X7.9389 Y-34.0745
G1 X7.9544 Y-34.0624
G1 X7.9692 Y-34.0496
G1 X7.9857 Y-34.0345
G1 X8.2467 Y-33.7737
G1 X8.2602 Y-33.7595
G1 X8.2751 Y-33.7429
G1 X8.2935 Y-33.7199
G1 X8.3122 Y-33.6938
G1 X8.3292 Y-33.6665
G1 X8.3388 Y-33.6495
G1 X8.3477 Y-33.6319
G1 X8.3609 Y-33.6027
G1 X8.3722 Y-33.5726
G1 X8.3811 Y-33.5446
G1 X8.3889 Y-33.5134
G1 X8.3943 Y-33.4845
G1 X8.3985 Y-33.4527
G1 X8.4000 Y-33.4331
G1 X8.4009 Y-33.4108
G1 X8.4011 Y-32.4040
G1 X8.6360 Y-32.4040
G1 X8.6556 Y-32.4035
G1 X8.6752 Y-32.4021
G1 X8.7044 Y-32.3981
G1 X8.7236 Y-32.3943
G1 X8.7427 Y-32.3895
G1 X8.7615 Y-32.3838
G1 X8.7800 Y-32.3772
G1 X8.8070 Y-32.3656
G1 X8.8246 Y-32.3568
G1 X8.8500 Y-32.3419
G1 X8.8663 Y-32.3310
G1 X8.8821 Y-32.3193
G1 X8.8973 Y-32.3069
G1 X8.9118 Y-32.2937
G1 X8.9324 Y-32.2726
G1 X8.9452 Y-32.2578
G1 X8.9573 Y-32.2423
G1 X8.9686 Y-32.2262
G1 X8.9791 Y-32.2096
G1 X8.9933 Y-32.1838
G1 X9.0017 Y-32.1661
G1 X9.0126 Y-32.1388
G1 X9.0188 Y-32.1201
G1 X9.0240 Y-32.1012
G1 X9.0301 Y-32.0724
G1 X9.0330 Y-32.0530
G1 X9.0349 Y-32.0334
G1 X9.0360 Y-32.0040
G1 X9.0360 Y-30.4800
G1 X9.0355 Y-30.4604
G1 X9.0341 Y-30.4408
G1 X9.0317 Y-30.4213
G1 X9.0283 Y-30.4020
G1 X9.0240 Y-30.3828
G1 X9.0158 Y-30.3545
G1 X9.0092 Y-30.3360
G1 X9.0017 Y-30.3179
G1 X8.9933 Y-30.3002
G1 X8.9840 Y-30.2828
G1 X8.9739 Y-30.2660
G1 X8.9630 Y-30.2497
G1 X8.9513 Y-30.2339
G1 X8.9389 Y-30.2187
G1 X8.9188 Y-30.1972
G1 X8.9046 Y-30.1836
G1 X8.8898 Y-30.1708
G1 X8.8663 Y-30.1530
G1 X8.8500 Y-30.1421
G1 X8.8332 Y-30.1320
G1 X8.8070 Y-30.1184
G1 X8.7891 Y-30.1104
G1 X8.7708 Y-30.1034
G1 X8.7521 Y-30.0972
G1 X8.7332 Y-30.0920
G1 X8.7044 Y-30.0859
G1 X8.6850 Y-30.0830
G1 X8.6654 Y-30.0811
G1 X8.6360 Y-30.0800
G1 X7.1120 Y-30.0800
G1 X7.0924 Y-30.0805
G1 X7.0728 Y-30.0819
G1 X7.0436 Y-30.0859
G1 X7.0148 Y-30.0920
G1 X6.9959 Y-30.0972
G1 X6.9772 Y-30.1034
G1 X6.9499 Y-30.1143
G1 X6.9234 Y-30.1272
G1 X6.8980 Y-30.1421
G1 X6.8817 Y-30.1530
G1 X6.8582 Y-30.1708
G1 X6.8434 Y-30.1836
G1 X6.8223 Y-30.2042
G1 X6.8028 Y-30.2262
G1 X6.7850 Y-30.2497
G1 X6.7689 Y-30.2744
G1 X6.7592 Y-30.2914
G1 X6.7504 Y-30.3090
G1 X6.7388 Y-30.3360
G1 X6.7322 Y-30.3545
G1 X6.7240 Y-30.3828
G1 X6.7179 Y-30.4116
G1 X6.7150 Y-30.4310
G1 X6.7131 Y-30.4506
G1 X6.7121 Y-30.4702
G1 X6.7120 Y-32.0040
G1 X6.7125 Y-32.0236
G1 X6.7139 Y-32.0432
G1 X6.7163 Y-32.0627
G1 X6.7197 Y-32.0820
G1 X6.7240 Y-32.1012
G1 X6.7292 Y-32.1201
G1 X6.7354 Y-32.1388
G1 X6.7463 Y-32.1661
G1 X6.7592 Y-32.1926
G1 X6.7689 Y-32.2096
G1 X6.7794 Y-32.2262
G1 X6.7907 Y-32.2423
G1 X6.8028 Y-32.2578
G1 X6.8156 Y-32.2726
G1 X6.8362 Y-32.2937
G1 X6.8507 Y-32.3069
G1 X6.8737 Y-32.3253
G1 X6.8898 Y-32.3366
G1 X6.9064 Y-32.3471
G1 X6.9322 Y-32.3613
G1 X6.9589 Y-32.3736
G1 X6.9772 Y-32.3806
G1 X6.9959 Y-32.3868
G1 X7.0148 Y-32.3920
G1 X7.0340 Y-32.3963
G1 X7.0533 Y-32.3997
G1 X7.0728 Y-32.4021
G1 X7.0924 Y-32.4035
G1 X7.1120 Y-32.4040
G1 X7.3469 Y-32.4040
G1 X7.3469 Y-33.1279
G1 X2.7842 Y-33.1281
G1 X2.7619 Y-33.1290
G1 X2.7423 Y-33.1305
G1 X2.7229 Y-33.1329
G1 X2.6912 Y-33.1381
G1 X2.6720 Y-33.1424
G1 X2.6410 Y-33.1506
G1 X2.6106 Y-33.1610
G1 X2.5923 Y-33.1681
G1 X2.5631 Y-33.1813
G1 X2.5455 Y-33.1902
G1 X2.5285 Y-33.1998
G1 X2.5012 Y-33.2168
G1 X2.4751 Y-33.2355
G1 X2.4596 Y-33.2476
G1 X2.4448 Y-33.2604
G1 X2.4213 Y-33.2823
G1 X2.3994 Y-33.3058
G1 X2.3866 Y-33.3206
G1 X2.3745 Y-33.3361
G1 X2.3613 Y-33.3541
G1 X2.3504 Y-33.3704
G1 X2.3388 Y-33.3895
G1 X2.3292 Y-33.4065
G1 X2.3203 Y-33.4241
G1 X2.3109 Y-33.4443
G1 X2.3034 Y-33.4624
G1 X2.2926 Y-33.4926
G1 X2.2869 Y-33.5114
G1 X2.2814 Y-33.5330
G1 X2.2771 Y-33.5522
G1 X2.2737 Y-33.5715
G1 X2.2695 Y-33.6033
G1 X2.2680 Y-33.6229
G1 X2.2669 Y-33.6550
G1 X2.2669 Y-34.7790
G1 X2.0320 Y-34.7790
G1 X2.0124 Y-34.7795
G1 X1.9830 Y-34.7820
G1 X1.9636 Y-34.7849
G1 X1.9444 Y-34.7887
G1 X1.9253 Y-34.7935
G1 X1.9065 Y-34.7992
G1 X1.8880 Y-34.8058
G1 X1.8699 Y-34.8133
G1 X1.8522 Y-34.8217
G1 X1.8348 Y-34.8310
G1 X1.8098 Y-34.8464
G1 X1.7937 Y-34.8577
G1 X1.7782 Y-34.8698
G1 X1.7562 Y-34.8893
G1 X1.7423 Y-34.9032
G1 X1.7228 Y-34.9252
G1 X1.7050 Y-34.9487
G1 X1.6941 Y-34.9650
G1 X1.6840 Y-34.9818
G1 X1.6747 Y-34.9992
G1 X1.6663 Y-35.0169
G1 X1.6554 Y-35.0442
G1 X1.6492 Y-35.0629
G1 X1.6417 Y-35.0914
G1 X1.6379 Y-35.1106
G1 X1.6339 Y-35.1398
G1 X1.6325 Y-35.1594
G1 X1.6320 Y-35.1790
G1 X1.6320 Y-36.7030
G1 X1.6325 Y-36.7226
G1 X1.6339 Y-36.7422
G1 X1.6363 Y-36.7617
G1 X1.6397 Y-36.7810
G1 X1.6465 Y-36.8097
G1 X1.6522 Y-36.8285
G1 X1.6588 Y-36.8470
G1 X1.6663 Y-36.8651
G1 X1.6747 Y-36.8828
G1 X1.6889 Y-36.9086
G1 X1.6994 Y-36.9252
G1 X1.7107 Y-36.9413
G1 X1.7291 Y-36.9643
G1 X1.7492 Y-36.9858
G1 X1.7634 Y-36.9994
G1 X1.7782 Y-37.0122
G1 X1.7937 Y-37.0243
G1 X1.8098 Y-37.0356
G1 X1.8348 Y-37.0510
G1 X1.8522 Y-37.0603
G1 X1.8699 Y-37.0687
G1 X1.8972 Y-37.0796
G1 X1.9253 Y-37.0885
G1 X1.9444 Y-37.0933
G1 X1.9636 Y-37.0971
G1 X1.9928 Y-37.1011
G1 X2.0124 Y-37.1025
G1 X2.0320 Y-37.1030
G0 Z2.0000
G0 X7.3469 Y-36.9761
F1000
G1 Z0.0000 F1000
F300
G1 X7.3469 Y-41.0210
G1 X7.3474 Y-41.0406
G1 X7.3495 Y-41.0727
G1 X7.3519 Y-41.0921
G1 X7.3553 Y-41.1142
G1 X7.3591 Y-41.1334
G1 X7.3644 Y-41.1551
G1 X7.3696 Y-41.1740
G1 X7.3758 Y-41.1926
G1 X7.3834 Y-41.2136
G1 X7.3909 Y-41.2317
G1 X7.4003 Y-41.2519
G1 X7.4092 Y-41.2695
G1 X7.4188 Y-41.2865
G1 X7.4358 Y-41.3138
G1 X7.4471 Y-41.3299
G1 X7.4604 Y-41.3477
G1 X7.4729 Y-41.3629
G1 X7.4878 Y-41.3795
G1 X7.5013 Y-41.3937
G1 X7.5155 Y-41.4072
G1 X7.5321 Y-41.4221
G1 X7.5473 Y-41.4346
G1 X7.5651 Y-41.4479
G1 X7.5812 Y-41.4592
G1 X7.6085 Y-41.4762
G1 X7.6255 Y-41.4858
G1 X7.6431 Y-41.4947
G1 X7.6633 Y-41.5041
G1 X7.6814 Y-41.5116
G1 X7.7024 Y-41.5192
G1 X7.7210 Y-41.5254
G1 X7.7399 Y-41.5306
G1 X7.7616 Y-41.5359
G1 X7.7808 Y-41.5397
G1 X7.8029 Y-41.5431
G1 X7.8223 Y-41.5455
G1 X7.8419 Y-41.5470
G1 X7.8739 Y-41.5481
G1 X16.4925 Y-41.5506
G1 X16.4958 Y-41.6141
G1 X16.4977 Y-41.6336
G1 X16.5100 Y-41.7173
G1 X16.5154 Y-41.7462
G1 X16.5358 Y-41.8283
G1 X16.5410 Y-41.8473
G1 X16.5472 Y-41.8659
G1 X16.5724 Y-41.9363
G1 X16.5833 Y-41.9637
G1 X16.6194 Y-42.0402
G1 X16.6282 Y-42.0577
G1 X16.6379 Y-42.0748
G1 X16.6763 Y-42.1389
G1 X16.6868 Y-42.1555
G1 X16.6981 Y-42.1716
G1 X16.7427 Y-42.2316
G1 X16.7548 Y-42.2471
G1 X16.7676 Y-42.2620
G1 X16.8178 Y-42.3174
G1 X16.8384 Y-42.3385
G1 X16.9010 Y-42.3954
G1 X16.9158 Y-42.4082
G1 X16.9313 Y-42.4203
G1 X16.9914 Y-42.4648
G1 X17.0074 Y-42.4761
G1 X17.0240 Y-42.4866
G1 X17.0882 Y-42.5251
G1 X17.1052 Y-42.5347
G1 X17.1228 Y-42.5436
G1 X17.1904 Y-42.5755
G1 X17.2174 Y-42.5871
G1 X17.2970 Y-42.6158
G1 X17.3157 Y-42.6219
G1 X17.3346 Y-42.6272
G1 X17.4071 Y-42.6453
G1 X17.4360 Y-42.6514
G1 X17.5196 Y-42.6640
G1 X17.5489 Y-42.6672
G1 X17.6432 Y-42.6718
G1 X17.6726 Y-42.6715
G1 X17.7473 Y-42.6678
G1 X17.7669 Y-42.6664
G1 X17.7864 Y-42.6640
G1 X17.8604 Y-42.6530
G1 X17.8797 Y-42.6496
G1 X17.8989 Y-42.6453
G1 X17.9714 Y-42.6272
G1 X17.9903 Y-42.6219
G1 X18.0090 Y-42.6158
G1 X18.0794 Y-42.5906
G1 X18.0977 Y-42.5835
G1 X18.1156 Y-42.5755
G1 X18.1832 Y-42.5436
G1 X18.2008 Y-42.5347
G1 X18.2178 Y-42.5251
G1 X18.2903 Y-42.4815
G1 X18.3146 Y-42.4648
G1 X18.3747 Y-42.4203
G1 X18.3902 Y-42.4082
G1 X18.4050 Y-42.3954
G1 X18.4604 Y-42.3451
G1 X18.4747 Y-42.3316
G1 X18.4882 Y-42.3174
G1 X18.5384 Y-42.2620
G1 X18.5512 Y-42.2471
G1 X18.5633 Y-42.2316
G1 X18.6079 Y-42.1716
G1 X18.6192 Y-42.1555
G1 X18.6297 Y-42.1389
G1 X18.6731 Y-42.0663
G1 X18.6823 Y-42.0490
G1 X18.6881 Y-42.0370
G1 X24.9110 Y-42.0370
G1 X24.9307 Y-42.0365
G1 X24.9627 Y-42.0345
G1 X24.9822 Y-42.0321
G1 X25.0139 Y-42.0269
G1 X25.0330 Y-42.0226
G1 X25.0640 Y-42.0143
G1 X25.0944 Y-42.0040
G1 X25.1218 Y-41.9930
G1 X25.1508 Y-41.9793
G1 X25.1766 Y-41.9651
G1 X25.2039 Y-41.9482
G1 X25.2299 Y-41.9295
G1 X25.2529 Y-41.9111
G1 X25.2695 Y-41.8962
G1 X25.2837 Y-41.8826
G1 X25.5369 Y-41.6295
G1 X25.6367 Y-41.6651
G1 X25.6650 Y-41.6733
G1 X25.7545 Y-41.6958
G1 X25.7736 Y-41.7001
G1 X25.7930 Y-41.7034
G1 X25.8842 Y-41.7169
G1 X25.9037 Y-41.7193
G1 X25.9233 Y-41.7208
G1 X26.0154 Y-41.7253
G1 X26.0350 Y-41.7258
G1 X26.0546 Y-41.7253
G1 X26.1565 Y-41.7202
G1 X26.1858 Y-41.7169
G1 X26.2770 Y-41.7034
G1 X26.2964 Y-41.7001
G1 X26.3155 Y-41.6958
G1 X26.4050 Y-41.6733
G1 X26.4239 Y-41.6681
G1 X26.4426 Y-41.6620
G1 X26.5294 Y-41.6309
G1 X26.5477 Y-41.6238
G1 X26.5657 Y-41.6159
G1 X26.6490 Y-41.5764
G1 X26.6666 Y-41.5676
G1 X26.6837 Y-41.5579
G1 X26.7628 Y-41.5105
G1 X26.7874 Y-41.4944
G1 X26.8773 Y-41.4278
G1 X26.8998 Y-41.4089
G1 X26.9682 Y-41.3469
G1 X26.9824 Y-41.3334
G1 X26.9959 Y-41.3192
G1 X27.0579 Y-41.2508
G1 X27.0768 Y-41.2283
G1 X27.1377 Y-41.1464
G1 X27.1490 Y-41.1304
G1 X27.1595 Y-41.1138
G1 X27.2069 Y-41.0347
G1 X27.2166 Y-41.0176
G1 X27.2254 Y-41.0000
G1 X27.2649 Y-40.9167
G1 X27.2728 Y-40.8987
G1 X27.2799 Y-40.8804
G1 X27.3110 Y-40.7936
G1 X27.3171 Y-40.7749
G1 X27.3223 Y-40.7560
G1 X27.3448 Y-40.6665
G1 X27.3509 Y-40.6377
G1 X27.3659 Y-40.5368
G1 X27.3683 Y-40.5173
G1 X27.3698 Y-40.4977
G1 X27.3743 Y-40.4056
G1 X27.3748 Y-40.3860
G1 X27.3743 Y-40.3664
G1 X27.3692 Y-40.2645
G1 X27.3659 Y-40.2352
G1 X27.3524 Y-40.1440
G1 X27.3491 Y-40.1246
G1 X27.3448 Y-40.1055
G1 X27.3223 Y-40.0160
G1 X27.3171 Y-39.9971
G1 X27.3110 Y-39.9784
G1 X27.2799 Y-39.8916
G1 X27.2728 Y-39.8733
G1 X27.2649 Y-39.8553
G1 X27.2254 Y-39.7720
G1 X27.2166 Y-39.7544
G1 X27.2069 Y-39.7373
G1 X27.1595 Y-39.6582
G1 X27.1490 Y-39.6416
G1 X27.1377 Y-39.6256
G1 X27.0828 Y-39.5515
G1 X27.0707 Y-39.5360
G1 X27.0579 Y-39.5212
G1 X26.9959 Y-39.4528
G1 X26.9824 Y-39.4386
G1 X26.9682 Y-39.4251
G1 X26.8998 Y-39.3631
G1 X26.8850 Y-39.3503
G1 X26.8695 Y-39.3382
G1 X26.7954 Y-39.2833
G1 X26.7794 Y-39.2720
G1 X26.7628 Y-39.2615
G1 X26.6837 Y-39.2141
G1 X26.6579 Y-39.1999
G1 X26.5657 Y-39.1561
G1 X26.5477 Y-39.1482
G1 X26.5294 Y-39.1411
G1 X26.4426 Y-39.1100
G1 X26.4239 Y-39.1039
G1 X26.4050 Y-39.0987
G1 X26.3155 Y-39.0762
G1 X26.2964 Y-39.0719
G1 X26.2770 Y-39.0686
G1 X26.1858 Y-39.0551
G1 X26.1663 Y-39.0527
G1 X26.1467 Y-39.0512
G1 X26.0546 Y-39.0467
G1 X26.0350 Y-39.0462
G1 X26.0154 Y-39.0467
G1 X25.9233 Y-39.0512
G1 X25.9037 Y-39.0527
G1 X25.8842 Y-39.0551
G1 X25.7930 Y-39.0686
G1 X25.7736 Y-39.0719
G1 X25.7545 Y-39.0762
G1 X25.6650 Y-39.0987
G1 X25.6461 Y-39.1039
G1 X25.6274 Y-39.1100
G1 X25.5406 Y-39.1411
